; generated by Slic3r Prusa Edition 1.41.3+linux64 on 2019-06-26 at 19:08:06

; 

; external perimeters extrusion width = 0.45mm
; perimeters extrusion width = 0.45mm
; infill extrusion width = 0.45mm
; solid infill extrusion width = 0.45mm
; top infill extrusion width = 0.45mm
; first layer extrusion width = 0.42mm

M201 X9000 Y9000 Z500 E10000 ; sets maximum accelerations, mm/sec^2
M203 X500 Y500 Z12 E120 ; sets maximum feedrates, mm/sec
M204 P2000 R1500 T2000 ; sets acceleration (P, T) and retract acceleration (R), mm/sec^2
M205 X10.00 Y10.00 Z0.20 E2.50 ; sets the jerk limits, mm/sec
M205 S0 T0 ; sets the minimum extruding and travel feed rate, mm/sec
M107
M115 U3.1.0 ; tell printer latest fw version
M83  ; extruder relative mode
M204 S2000 T1500 ; MK2 firmware only supports the old M204 format
M104 S250 ; set extruder temp
M140 S80 ; set bed temp
M190 S80 ; wait for bed temp
M109 S250 ; wait for extruder temp
G28 W ; home all without mesh bed level
G80 ; mesh bed leveling
G1 Y-3.0 F1000.0 ; go outside print area
G92 E0.0
G1 X60.0 E9.0  F1000.0 ; intro line
G1 X100.0 E12.5  F1000.0 ; intro line
G92 E0.0
M900 K45; Filament gcode
G21 ; set units to millimeters
G90 ; use absolute coordinates
M83 ; use relative distances for extrusion
;BEFORE_LAYER_CHANGE
G92 E0.0
;0.2


G1 Z0.200 F10800.000
;AFTER_LAYER_CHANGE
;0.2
G1 E-0.80000 F2100.00000
G1 Z0.800 F10800.000
G1 X108.171 Y83.095
G1 Z0.200
G1 E0.80000 F2100.00000
M204 S1000
G1 F1200
G1 X108.742 Y82.384 E0.02859
G1 X109.461 Y81.811 E0.02882
G1 X110.427 Y81.360 E0.03342
G1 X111.365 Y81.176 E0.02996
G1 X138.304 Y81.161 E0.84466
G1 X139.112 Y81.241 E0.02547
G1 X139.881 Y81.471 E0.02518
G1 X140.602 Y81.851 E0.02552
G1 X141.195 Y82.324 E0.02380
G1 X141.721 Y82.935 E0.02528
G1 X142.036 Y83.459 E0.01917
G1 X142.318 Y84.168 E0.02392
G1 X142.472 Y84.985 E0.02608
G1 X142.488 Y124.683 E1.24469
G1 X142.312 Y125.854 E0.03713
G1 X141.829 Y126.905 E0.03627
G1 X141.210 Y127.662 E0.03064
G1 X140.314 Y128.322 E0.03490
G1 X139.443 Y128.679 E0.02950
G1 X138.386 Y128.837 E0.03354
G1 X111.649 Y128.838 E0.83831
G1 X110.492 Y128.661 E0.03668
G1 X109.445 Y128.179 E0.03615
G1 X108.686 Y127.558 E0.03075
G1 X108.024 Y126.658 E0.03502
G1 X107.669 Y125.786 E0.02950
G1 X107.512 Y124.710 E0.03411
G1 X107.512 Y85.317 E1.23514
G1 X107.688 Y84.146 E0.03713
G1 X108.146 Y83.149 E0.03439
; PURGING FINISHED
G1 F8640
G1 X108.742 Y82.384 E-0.22402
G1 X109.461 Y81.811 E-0.21224
G1 X110.427 Y81.360 E-0.24614
G1 X110.757 Y81.295 E-0.07760
G1 E-0.04000 F2100.00000
G1 Z0.800 F10800.000
G1 X113.569 Y93.249
G1 Z0.200
G1 E0.80000 F2100.00000
G1 F1200
G1 X113.761 Y93.215 E0.00610
G1 X116.008 Y93.221 E0.07047
G1 X116.208 Y93.294 E0.00667
G1 X116.371 Y93.431 E0.00668
G1 X116.477 Y93.615 E0.00668
G1 X116.511 Y93.807 E0.00609
G1 X116.511 Y119.443 E0.80382
G1 X116.476 Y119.643 E0.00637
G1 X116.311 Y119.882 E0.00909
G1 X116.113 Y120.001 E0.00727
G1 X115.919 Y120.035 E0.00615
G1 X113.672 Y120.029 E0.07047
G1 X113.472 Y119.956 E0.00667
G1 X113.309 Y119.819 E0.00668
G1 X113.202 Y119.635 E0.00668
G1 X113.169 Y119.443 E0.00609
G1 X113.169 Y93.797 E0.80411
G1 X113.241 Y93.526 E0.00882
G1 X113.384 Y93.355 E0.00698
G1 X113.517 Y93.279 E0.00480
G1 F8640
G1 X113.761 Y93.215 E-0.05815
G1 X116.008 Y93.221 E-0.51893
G1 X116.208 Y93.294 E-0.04911
G1 X116.371 Y93.431 E-0.04918
G1 X116.477 Y93.615 E-0.04918
G1 X116.504 Y93.767 E-0.03546
G1 E-0.04000 F2100.00000
G1 Z0.800 F10800.000
G1 X133.489 Y93.807
G1 Z0.200
G1 E0.80000 F2100.00000
G1 F1200
G1 X133.524 Y93.606 E0.00639
G1 X133.697 Y93.360 E0.00941
G1 X133.889 Y93.249 E0.00698
G1 X134.081 Y93.215 E0.00610
G1 X136.357 Y93.221 E0.07137
G1 X136.557 Y93.294 E0.00667
G1 X136.720 Y93.431 E0.00668
G1 X136.827 Y93.615 E0.00668
G1 X136.860 Y93.807 E0.00609
G1 X136.860 Y119.453 E0.80411
G1 X136.788 Y119.724 E0.00882
G1 X136.645 Y119.895 E0.00698
G1 X136.460 Y120.001 E0.00668
G1 X136.268 Y120.035 E0.00610
G1 X133.992 Y120.029 E0.07137
G1 X133.792 Y119.956 E0.00667
G1 X133.629 Y119.819 E0.00668
G1 X133.523 Y119.635 E0.00668
G1 X133.489 Y119.443 E0.00609
G1 X133.489 Y93.867 E0.80194
G1 F8640
G1 X133.524 Y93.606 E-0.06076
G1 X133.697 Y93.360 E-0.06931
G1 X133.889 Y93.249 E-0.05138
G1 X134.081 Y93.215 E-0.04494
G1 X136.357 Y93.221 E-0.52559
G1 X136.390 Y93.233 E-0.00803
G1 E-0.04000 F2100.00000
G1 Z0.800 F10800.000
G1 X140.090 Y93.867
G1 Z0.200
G1 E0.80000 F2100.00000
G1 F1200
G1 X140.090 Y124.645 E0.96503
G1 X140.081 Y124.820 E0.00551
G1 X140.011 Y125.174 E0.01132
G1 X139.955 Y125.330 E0.00518
G1 X139.787 Y125.644 E0.01116
G1 X139.562 Y125.919 E0.01116
G1 X139.439 Y126.030 E0.00518
G1 X139.143 Y126.228 E0.01116
G1 X138.815 Y126.364 E0.01116
G1 X138.654 Y126.404 E0.00518
G1 X138.290 Y126.440 E0.01148
G1 X111.710 Y126.440 E0.83338
G1 X111.346 Y126.404 E0.01148
G1 X111.185 Y126.364 E0.00520
G1 X110.885 Y126.242 E0.01015
G1 X110.568 Y126.036 E0.01184
G1 X110.342 Y125.813 E0.00997
G1 X110.122 Y125.492 E0.01220
G1 X109.988 Y125.169 E0.01097
G1 X109.924 Y124.857 E0.00998
G1 X109.910 Y124.643 E0.00671
G1 X109.910 Y85.355 E1.23185
G1 X109.919 Y85.180 E0.00551
G1 X109.989 Y84.826 E0.01132
G1 X110.045 Y84.670 E0.00518
G1 X110.215 Y84.352 E0.01132
G1 X110.314 Y84.218 E0.00520
G1 X110.537 Y83.992 E0.00997
G1 X110.858 Y83.771 E0.01221
G1 X111.151 Y83.648 E0.00994
G1 X111.348 Y83.596 E0.00639
G1 X111.710 Y83.560 E0.01143
G1 X138.443 Y83.568 E0.83819
G1 X138.646 Y83.594 E0.00641
G1 X138.985 Y83.697 E0.01110
G1 X139.294 Y83.863 E0.01100
G1 X139.565 Y84.085 E0.01100
G1 X139.787 Y84.356 E0.01100
G1 X139.953 Y84.665 E0.01100
G1 X140.055 Y85.001 E0.01100
G1 X140.090 Y85.360 E0.01132
G1 X140.090 Y93.807 E0.26483
G1 F8640
G1 X140.090 Y97.098 E-0.76000
G1 E-0.04000 F2100.00000
G1 Z0.800 F10800.000
G1 X139.977 Y96.679
G1 Z0.200
G1 E0.80000 F2100.00000
G1 F1200
G1 X137.143 Y93.845 E0.12617
G1 X137.143 Y94.381 E0.01686
G1 X139.807 Y97.045 E0.11862
G1 X139.807 Y97.580 E0.01686
G1 X137.143 Y94.916 E0.11862
G1 X137.143 Y95.452 E0.01686
G1 X139.807 Y98.116 E0.11862
G1 X139.807 Y98.651 E0.01686
G1 X137.143 Y95.987 E0.11862
G1 X137.143 Y96.523 E0.01686
G1 X139.807 Y99.187 E0.11862
G1 X139.807 Y99.722 E0.01686
G1 X137.143 Y97.058 E0.11862
G1 X137.143 Y97.594 E0.01686
G1 X139.807 Y100.258 E0.11862
G1 X139.807 Y100.793 E0.01686
G1 X137.143 Y98.129 E0.11862
G1 X137.143 Y98.665 E0.01686
G1 X139.807 Y101.329 E0.11862
G1 X139.807 Y101.864 E0.01686
G1 X137.143 Y99.200 E0.11862
G1 X137.143 Y99.736 E0.01686
G1 X139.807 Y102.400 E0.11862
G1 X139.807 Y102.935 E0.01686
G1 X137.143 Y100.271 E0.11862
G1 X137.143 Y100.807 E0.01686
G1 X139.807 Y103.471 E0.11862
G1 X139.807 Y104.006 E0.01686
G1 X137.143 Y101.342 E0.11862
G1 X137.143 Y101.878 E0.01686
G1 X139.807 Y104.542 E0.11862
G1 X139.807 Y105.077 E0.01686
G1 X137.143 Y102.413 E0.11862
G1 X137.143 Y102.949 E0.01686
G1 X139.807 Y105.613 E0.11862
G1 X139.807 Y106.148 E0.01686
G1 X137.143 Y103.484 E0.11862
G1 X137.143 Y104.019 E0.01686
G1 X139.807 Y106.684 E0.11862
G1 X139.807 Y107.219 E0.01686
G1 X137.143 Y104.555 E0.11862
G1 X137.143 Y105.090 E0.01686
G1 X139.807 Y107.754 E0.11862
G1 X139.807 Y108.290 E0.01686
G1 X137.143 Y105.626 E0.11862
G1 X137.143 Y106.161 E0.01686
G1 X139.807 Y108.825 E0.11862
G1 X139.807 Y109.361 E0.01686
G1 X137.143 Y106.697 E0.11862
G1 X137.143 Y107.232 E0.01686
G1 X139.807 Y109.896 E0.11862
G1 X139.807 Y110.432 E0.01686
G1 X137.143 Y107.768 E0.11862
G1 X137.143 Y108.303 E0.01686
G1 X139.807 Y110.967 E0.11862
G1 X139.807 Y111.503 E0.01686
G1 X137.143 Y108.839 E0.11862
G1 X137.143 Y109.374 E0.01686
G1 X139.807 Y112.038 E0.11862
G1 X139.807 Y112.574 E0.01686
G1 X137.143 Y109.910 E0.11862
G1 X137.143 Y110.445 E0.01686
G1 X139.807 Y113.109 E0.11862
G1 X139.807 Y113.645 E0.01686
G1 X137.143 Y110.981 E0.11862
G1 X137.143 Y111.516 E0.01686
G1 X139.807 Y114.180 E0.11862
G1 X139.807 Y114.716 E0.01686
G1 X137.143 Y112.052 E0.11862
G1 X137.143 Y112.587 E0.01686
G1 X139.807 Y115.251 E0.11862
G1 X139.807 Y115.787 E0.01686
G1 X137.143 Y113.123 E0.11862
G1 X137.143 Y113.658 E0.01686
G1 X139.807 Y116.322 E0.11862
G1 X139.807 Y116.858 E0.01686
G1 X137.143 Y114.194 E0.11862
G1 X137.143 Y114.729 E0.01686
G1 X139.807 Y117.393 E0.11862
G1 X139.807 Y117.929 E0.01686
G1 X137.143 Y115.265 E0.11862
G1 X137.143 Y115.800 E0.01686
G1 X139.807 Y118.464 E0.11862
G1 X139.807 Y119.000 E0.01686
G1 X137.143 Y116.335 E0.11862
G1 X137.143 Y116.871 E0.01686
G1 X139.807 Y119.535 E0.11862
G1 X139.807 Y120.070 E0.01686
G1 X137.143 Y117.406 E0.11862
G1 X137.143 Y117.942 E0.01686
G1 X139.807 Y120.606 E0.11862
G1 X139.807 Y121.141 E0.01686
G1 X137.143 Y118.477 E0.11862
G1 X137.143 Y119.013 E0.01686
G1 X139.807 Y121.677 E0.11862
G1 X139.807 Y122.212 E0.01686
G1 X137.131 Y119.536 E0.11917
G1 X137.045 Y119.858 E0.01050
G1 X136.987 Y119.927 E0.00284
G1 X139.807 Y122.748 E0.12559
G1 X139.807 Y123.283 E0.01686
G1 X136.708 Y120.184 E0.13798
G1 X136.558 Y120.271 E0.00545
G1 X136.304 Y120.316 E0.00812
G1 X139.807 Y123.819 E0.15597
G1 X139.807 Y124.354 E0.01686
G1 X135.769 Y120.316 E0.17979
G1 X135.232 Y120.315 E0.01691
G1 X139.784 Y124.866 E0.20265
G1 X139.738 Y125.099 E0.00746
G1 X139.662 Y125.280 E0.00618
G1 X134.695 Y120.314 E0.22112
G1 X134.159 Y120.312 E0.01691
G1 X139.453 Y125.606 E0.23572
G1 X139.265 Y125.806 E0.00865
G1 X139.176 Y125.865 E0.00334
G1 X116.794 Y103.483 E0.99659
G1 X116.794 Y104.018 E0.01686
G1 X138.828 Y126.052 E0.98106
G1 X138.606 Y126.125 E0.00736
G1 X138.386 Y126.146 E0.00694
G1 X116.794 Y104.554 E0.96141
G1 X116.794 Y105.089 E0.01686
G1 X137.862 Y126.157 E0.93805
G1 X137.326 Y126.157 E0.01686
G1 X116.794 Y105.625 E0.91421
G1 X116.794 Y106.160 E0.01686
G1 X136.791 Y126.157 E0.89036
G1 X136.255 Y126.157 E0.01686
G1 X116.794 Y106.696 E0.86652
G1 X116.794 Y107.231 E0.01686
G1 X135.720 Y126.157 E0.84268
G1 X135.184 Y126.157 E0.01686
G1 X116.794 Y107.767 E0.81884
G1 X116.794 Y108.302 E0.01686
G1 X134.649 Y126.157 E0.79499
G1 X134.113 Y126.157 E0.01686
G1 X116.794 Y108.838 E0.77115
G1 X116.794 Y109.373 E0.01686
G1 X133.578 Y126.157 E0.74731
G1 X133.042 Y126.157 E0.01686
G1 X116.794 Y109.909 E0.72347
G1 X116.794 Y110.444 E0.01686
G1 X132.507 Y126.157 E0.69963
G1 X131.972 Y126.157 E0.01686
G1 X116.794 Y110.980 E0.67578
G1 X116.794 Y111.515 E0.01686
G1 X131.436 Y126.157 E0.65194
G1 X130.901 Y126.157 E0.01686
G1 X116.794 Y112.051 E0.62810
G1 X116.794 Y112.586 E0.01686
G1 X130.365 Y126.157 E0.60426
G1 X129.830 Y126.157 E0.01686
G1 X116.794 Y113.122 E0.58041
G1 X116.794 Y113.657 E0.01686
G1 X129.294 Y126.157 E0.55657
G1 X128.759 Y126.157 E0.01686
G1 X116.794 Y114.193 E0.53273
G1 X116.794 Y114.728 E0.01686
G1 X128.223 Y126.157 E0.50889
G1 X127.688 Y126.157 E0.01686
G1 X116.794 Y115.263 E0.48505
G1 X116.794 Y115.799 E0.01686
G1 X127.152 Y126.157 E0.46120
G1 X126.617 Y126.157 E0.01686
G1 X116.794 Y116.334 E0.43736
G1 X116.794 Y116.870 E0.01686
G1 X126.081 Y126.157 E0.41352
G1 X125.546 Y126.157 E0.01686
G1 X116.794 Y117.405 E0.38968
G1 X116.794 Y117.941 E0.01686
G1 X125.010 Y126.157 E0.36583
G1 X124.475 Y126.157 E0.01686
G1 X116.794 Y118.476 E0.34199
G1 X116.794 Y119.012 E0.01686
G1 X123.939 Y126.157 E0.31815
G1 X123.404 Y126.157 E0.01686
G1 X116.782 Y119.535 E0.29484
G1 X116.744 Y119.753 E0.00696
G1 X116.630 Y119.919 E0.00633
G1 X122.868 Y126.157 E0.27778
G1 X122.333 Y126.157 E0.01686
G1 X116.359 Y120.183 E0.26600
G1 X116.213 Y120.270 E0.00535
G1 X115.956 Y120.316 E0.00822
G1 X121.797 Y126.157 E0.26009
G1 X121.262 Y126.157 E0.01686
G1 X115.421 Y120.316 E0.26006
G1 X114.884 Y120.315 E0.01691
G1 X120.726 Y126.157 E0.26013
G1 X120.191 Y126.157 E0.01686
G1 X114.347 Y120.313 E0.26019
G1 X113.810 Y120.312 E0.01691
G1 X119.656 Y126.157 E0.26026
G1 X119.120 Y126.157 E0.01686
G1 X110.193 Y117.230 E0.39749
G1 X110.193 Y116.694 E0.01686
G1 X112.886 Y119.388 E0.11991
G1 X112.886 Y118.852 E0.01686
G1 X110.193 Y116.159 E0.11991
G1 X110.193 Y115.624 E0.01686
G1 X112.886 Y118.317 E0.11991
G1 X112.886 Y117.781 E0.01686
G1 X110.193 Y115.088 E0.11991
G1 X110.193 Y114.553 E0.01686
G1 X112.886 Y117.246 E0.11991
G1 X112.886 Y116.710 E0.01686
G1 X110.193 Y114.017 E0.11991
G1 X110.193 Y113.482 E0.01686
G1 X112.886 Y116.175 E0.11991
G1 X112.886 Y115.639 E0.01686
G1 X110.193 Y112.946 E0.11991
G1 X110.193 Y112.411 E0.01686
G1 X112.886 Y115.104 E0.11991
G1 X112.886 Y114.568 E0.01686
G1 X110.193 Y111.875 E0.11991
G1 X110.193 Y111.340 E0.01686
G1 X112.886 Y114.033 E0.11991
G1 X112.886 Y113.497 E0.01686
G1 X110.193 Y110.804 E0.11991
G1 X110.193 Y110.269 E0.01686
G1 X112.886 Y112.962 E0.11991
G1 X112.886 Y112.426 E0.01686
G1 X110.193 Y109.733 E0.11991
G1 X110.193 Y109.198 E0.01686
G1 X112.886 Y111.891 E0.11991
G1 X112.886 Y111.355 E0.01686
G1 X110.193 Y108.662 E0.11991
G1 X110.193 Y108.127 E0.01686
G1 X112.886 Y110.820 E0.11991
G1 X112.886 Y110.284 E0.01686
G1 X110.193 Y107.591 E0.11991
G1 X110.193 Y107.056 E0.01686
G1 X112.886 Y109.749 E0.11991
G1 X112.886 Y109.213 E0.01686
G1 X110.193 Y106.520 E0.11991
G1 X110.193 Y105.985 E0.01686
G1 X112.886 Y108.678 E0.11991
G1 X112.886 Y108.143 E0.01686
G1 X110.193 Y105.449 E0.11991
G1 X110.193 Y104.914 E0.01686
G1 X112.886 Y107.607 E0.11991
G1 X112.886 Y107.072 E0.01686
G1 X110.193 Y104.378 E0.11991
G1 X110.193 Y103.843 E0.01686
G1 X112.886 Y106.536 E0.11991
G1 X112.886 Y106.001 E0.01686
G1 X110.193 Y103.308 E0.11991
G1 X110.193 Y102.772 E0.01686
G1 X112.886 Y105.465 E0.11991
G1 X112.886 Y104.930 E0.01686
G1 X110.193 Y102.237 E0.11991
G1 X110.193 Y101.701 E0.01686
G1 X112.886 Y104.394 E0.11991
G1 X112.886 Y103.859 E0.01686
G1 X110.193 Y101.166 E0.11991
G1 X110.193 Y100.630 E0.01686
G1 X112.886 Y103.323 E0.11991
G1 X112.886 Y102.788 E0.01686
G1 X110.193 Y100.095 E0.11991
G1 X110.193 Y99.559 E0.01686
G1 X112.886 Y102.252 E0.11991
G1 X112.886 Y101.717 E0.01686
G1 X110.193 Y99.024 E0.11991
G1 X110.193 Y98.488 E0.01686
G1 X112.886 Y101.181 E0.11991
G1 X112.886 Y100.646 E0.01686
G1 X110.193 Y97.953 E0.11991
G1 X110.193 Y97.417 E0.01686
G1 X112.886 Y100.110 E0.11991
G1 X112.886 Y99.575 E0.01686
G1 X110.193 Y96.882 E0.11991
G1 X110.193 Y96.346 E0.01686
G1 X112.886 Y99.039 E0.11991
G1 X112.886 Y98.504 E0.01686
G1 X110.193 Y95.811 E0.11991
G1 X110.193 Y95.275 E0.01686
G1 X112.886 Y97.968 E0.11991
G1 X112.886 Y97.433 E0.01686
G1 X110.193 Y94.740 E0.11991
G1 X110.193 Y94.204 E0.01686
G1 X112.886 Y96.897 E0.11991
G1 X112.886 Y96.362 E0.01686
G1 X110.193 Y93.669 E0.11991
G1 X110.193 Y93.133 E0.01686
G1 X112.886 Y95.827 E0.11991
G1 X112.886 Y95.291 E0.01686
G1 X110.193 Y92.598 E0.11991
G1 X110.193 Y92.062 E0.01686
G1 X112.886 Y94.756 E0.11991
G1 X112.886 Y94.220 E0.01686
G1 X110.193 Y91.527 E0.11991
G1 X110.193 Y90.992 E0.01686
G1 X112.902 Y93.701 E0.12062
G1 X112.985 Y93.392 E0.01006
G1 X113.050 Y93.314 E0.00322
G1 X110.193 Y90.456 E0.12723
G1 X110.193 Y89.921 E0.01686
G1 X113.331 Y93.059 E0.13975
G1 X113.471 Y92.979 E0.00506
G1 X113.740 Y92.932 E0.00860
G1 X110.193 Y89.385 E0.15793
G1 X110.193 Y88.850 E0.01686
G1 X114.277 Y92.934 E0.18184
G1 X114.814 Y92.935 E0.01691
G1 X110.193 Y88.314 E0.20575
G1 X110.193 Y87.779 E0.01686
G1 X115.351 Y92.937 E0.22966
G1 X115.888 Y92.938 E0.01691
G1 X110.193 Y87.243 E0.25356
G1 X110.193 Y86.708 E0.01686
G1 X133.206 Y109.721 E1.02468
G1 X133.206 Y109.186 E0.01686
G1 X110.193 Y86.172 E1.02468
G1 X110.193 Y85.637 E0.01686
G1 X133.206 Y108.650 E1.02468
G1 X133.206 Y108.115 E0.01686
G1 X110.218 Y85.126 E1.02357
G1 X110.262 Y84.901 E0.00722
G1 X110.342 Y84.715 E0.00638
G1 X133.206 Y107.579 E1.01805
G1 X133.206 Y107.044 E0.01686
G1 X110.547 Y84.385 E1.00890
G1 X110.720 Y84.210 E0.00773
G1 X110.831 Y84.133 E0.00426
G1 X133.206 Y106.508 E0.99625
G1 X133.206 Y105.973 E0.01686
G1 X111.177 Y83.944 E0.98084
G1 X111.398 Y83.875 E0.00729
G1 X111.622 Y83.853 E0.00707
G1 X133.206 Y105.437 E0.96105
G1 X133.206 Y104.902 E0.01686
G1 X112.147 Y83.843 E0.93765
G1 X112.683 Y83.843 E0.01686
G1 X133.206 Y104.366 E0.91380
G1 X133.206 Y103.831 E0.01686
G1 X113.219 Y83.843 E0.88995
G1 X113.754 Y83.843 E0.01686
G1 X133.206 Y103.295 E0.86611
G1 X133.206 Y102.760 E0.01686
G1 X114.290 Y83.844 E0.84226
G1 X114.825 Y83.844 E0.01686
G1 X133.206 Y102.224 E0.81841
