; generated by Slic3r Prusa Edition 1.41.3+linux64 on 2019-06-26 at 19:08:17

; 

; external perimeters extrusion width = 0.45mm
; perimeters extrusion width = 0.45mm
; infill extrusion width = 0.45mm
; solid infill extrusion width = 0.45mm
; top infill extrusion width = 0.45mm
; first layer extrusion width = 0.42mm

M201 X9000 Y9000 Z500 E10000 ; sets maximum accelerations, mm/sec^2
M203 X500 Y500 Z12 E120 ; sets maximum feedrates, mm/sec
M204 P2000 R1500 T2000 ; sets acceleration (P, T) and retract acceleration (R), mm/sec^2
M205 X10.00 Y10.00 Z0.20 E2.50 ; sets the jerk limits, mm/sec
M205 S0 T0 ; sets the minimum extruding and travel feed rate, mm/sec
M107
M115 U3.1.0 ; tell printer latest fw version
M83  ; extruder relative mode
M204 S2000 T1500 ; MK2 firmware only supports the old M204 format
M104 S250 ; set extruder temp
M140 S80 ; set bed temp
M190 S80 ; wait for bed temp
M109 S250 ; wait for extruder temp
G28 W ; home all without mesh bed level
G80 ; mesh bed leveling
G1 Y-3.0 F1000.0 ; go outside print area
G92 E0.0
G1 X60.0 E9.0  F1000.0 ; intro line
G1 X100.0 E12.5  F1000.0 ; intro line
G92 E0.0
M900 K45; Filament gcode
G21 ; set units to millimeters
G90 ; use absolute coordinates
M83 ; use relative distances for extrusion
;BEFORE_LAYER_CHANGE
G92 E0.0
;0.2


G1 Z0.200 F10800.000
;AFTER_LAYER_CHANGE
;0.2
G1 E-0.80000 F2100.00000
G1 Z0.800 F10800.000
G1 X108.056 Y82.944
G1 Z0.200
G1 E0.80000 F2100.00000
M204 S1000
G1 F1200
G1 X108.661 Y82.198 E0.03012
G1 X109.507 Y81.559 E0.03325
G1 X110.364 Y81.185 E0.02929
G1 X111.264 Y81.013 E0.02875
G1 X138.403 Y80.999 E0.85093
G1 X139.211 Y81.078 E0.02543
G1 X139.985 Y81.310 E0.02536
G1 X140.705 Y81.688 E0.02548
G1 X141.300 Y82.161 E0.02385
G1 X141.820 Y82.762 E0.02490
G1 X142.147 Y83.300 E0.01976
G1 X142.435 Y84.026 E0.02447
G1 X142.587 Y84.841 E0.02601
G1 X142.603 Y124.830 E1.25383
G1 X142.427 Y126.003 E0.03718
G1 X141.944 Y127.056 E0.03632
G1 X141.326 Y127.814 E0.03068
G1 X140.429 Y128.478 E0.03500
G1 X139.549 Y128.840 E0.02983
G1 X138.500 Y128.999 E0.03326
G1 X111.553 Y129.000 E0.84490
G1 X110.395 Y128.824 E0.03672
G1 X109.342 Y128.341 E0.03633
G1 X108.583 Y127.723 E0.03068
G1 X107.916 Y126.820 E0.03522
G1 X107.554 Y125.936 E0.02995
G1 X107.398 Y124.872 E0.03371
G1 X107.397 Y85.170 E1.24483
G1 X107.572 Y84.001 E0.03706
G1 X108.031 Y82.999 E0.03456
; PURGING FINISHED
G1 F8640
G1 X108.661 Y82.198 E-0.23523
G1 X109.507 Y81.559 E-0.24484
G1 X110.364 Y81.185 E-0.21574
G1 X110.637 Y81.133 E-0.06419
G1 E-0.04000 F2100.00000
G1 Z0.800 F10800.000
G1 X114.205 Y120.396
G1 Z0.200
G1 E0.80000 F2100.00000
G1 F1200
G1 X135.687 Y120.382 E0.67353
G1 X135.937 Y120.426 E0.00798
G1 X136.074 Y120.489 E0.00472
G1 X136.197 Y120.576 E0.00472
G1 X136.373 Y120.785 E0.00856
G1 X136.466 Y121.042 E0.00856
G1 X136.478 Y123.050 E0.06296
G1 X136.434 Y123.300 E0.00797
G1 X136.367 Y123.445 E0.00501
G1 X136.197 Y123.647 E0.00826
G1 X136.067 Y123.739 E0.00501
G1 X135.819 Y123.829 E0.00826
G1 X135.678 Y123.841 E0.00443
G1 X114.329 Y123.851 E0.66940
G1 X114.069 Y123.805 E0.00827
G1 X113.824 Y123.664 E0.00886
G1 X113.643 Y123.447 E0.00886
G1 X113.546 Y123.182 E0.00886
G1 X113.546 Y121.056 E0.06667
G1 X113.639 Y120.799 E0.00856
G1 X113.731 Y120.668 E0.00501
G1 X113.940 Y120.493 E0.00856
G1 X114.149 Y120.416 E0.00697
G1 F8640
G1 X117.440 Y120.411 E-0.76000
G1 E-0.04000 F2100.00000
G1 Z0.800 F10800.000
G1 X128.050 Y118.909
G1 Z0.200
G1 E0.80000 F2100.00000
G1 F1200
G1 X128.059 Y116.258 E0.08310
G1 X128.149 Y116.010 E0.00830
G1 X128.319 Y115.807 E0.00831
G1 X128.549 Y115.674 E0.00831
G1 X128.792 Y115.631 E0.00775
G1 X130.134 Y115.640 E0.04206
G1 X130.279 Y115.679 E0.00472
G1 X130.500 Y115.806 E0.00801
G1 X130.660 Y115.996 E0.00778
G1 X130.729 Y116.138 E0.00495
G1 X130.770 Y116.373 E0.00748
G1 X130.762 Y119.023 E0.08309
G1 X130.678 Y119.257 E0.00777
G1 X130.588 Y119.387 E0.00495
G1 X130.399 Y119.546 E0.00776
G1 X130.262 Y119.610 E0.00474
G1 X130.028 Y119.651 E0.00745
G1 X128.686 Y119.642 E0.04206
G1 X128.541 Y119.603 E0.00472
G1 X128.320 Y119.476 E0.00801
G1 X128.160 Y119.286 E0.00778
G1 X128.091 Y119.144 E0.00495
G1 X128.060 Y118.968 E0.00560
G1 F8640
G1 X128.059 Y116.258 E-0.62565
G1 X128.149 Y116.010 E-0.06112
G1 X128.319 Y115.807 E-0.06121
G1 X128.365 Y115.781 E-0.01202
G1 E-0.04000 F2100.00000
G1 Z0.800 F10800.000
G1 X129.215 Y114.725
G1 Z0.200
G1 E0.80000 F2100.00000
G1 F1200
G1 X129.108 Y114.696 E0.00347
G1 X128.874 Y114.573 E0.00830
G1 X128.672 Y114.399 E0.00837
G1 X128.510 Y114.171 E0.00875
G1 X128.401 Y113.920 E0.00859
G1 X128.331 Y113.609 E0.00998
G1 X128.312 Y113.297 E0.00980
G1 X128.334 Y112.980 E0.00997
G1 X128.411 Y112.666 E0.01015
G1 X128.530 Y112.404 E0.00900
G1 X128.702 Y112.170 E0.00912
G1 X128.914 Y111.985 E0.00881
G1 X129.161 Y111.853 E0.00877
G1 X129.442 Y111.773 E0.00917
G1 X129.826 Y111.750 E0.01207
G1 X130.105 Y111.782 E0.00881
G1 X130.568 Y111.933 E0.01526
G1 X130.568 Y112.735 E0.02516
G1 X130.010 Y112.517 E0.01880
G1 X129.809 Y112.484 E0.00638
G1 X129.597 Y112.495 E0.00667
G1 X129.410 Y112.567 E0.00626
G1 X129.269 Y112.687 E0.00583
G1 X129.201 Y112.791 E0.00388
G1 X129.125 Y113.011 E0.00732
G1 X129.096 Y113.280 E0.00848
G1 X129.105 Y113.459 E0.00560
G1 X129.159 Y113.712 E0.00810
G1 X129.212 Y113.826 E0.00396
G1 X129.284 Y113.920 E0.00371
G1 X129.369 Y113.985 E0.00335
G1 X129.485 Y114.034 E0.00396
G1 X129.628 Y114.060 E0.00458
G1 X129.816 Y114.052 E0.00590
G1 X129.816 Y113.619 E0.01356
G1 X129.295 Y113.619 E0.01635
G1 X129.295 Y112.912 E0.02217
G1 X130.580 Y112.912 E0.04030
G1 X130.580 Y114.579 E0.05226
G1 X130.064 Y114.749 E0.01703
G1 X129.660 Y114.792 E0.01273
G1 X129.381 Y114.770 E0.00877
G1 X129.273 Y114.741 E0.00352
G1 F8640
G1 X129.108 Y114.696 E-0.03938
G1 X128.874 Y114.573 E-0.06115
G1 X128.672 Y114.399 E-0.06166
G1 X128.510 Y114.171 E-0.06445
G1 X128.401 Y113.920 E-0.06327
G1 X128.331 Y113.609 E-0.07349
G1 X128.312 Y113.297 E-0.07219
G1 X128.334 Y112.980 E-0.07343
G1 X128.411 Y112.666 E-0.07476
G1 X128.530 Y112.404 E-0.06629
G1 X128.702 Y112.170 E-0.06714
G1 X128.842 Y112.048 E-0.04279
G1 E-0.04000 F2100.00000
G1 Z0.800 F10800.000
G1 X123.500 Y114.791
G1 Z0.200
G1 E0.80000 F2100.00000
G1 F1200
G1 X122.636 Y114.791 E0.02706
G1 X122.185 Y113.826 E0.03342
G1 X122.086 Y113.689 E0.00530
G1 X122.000 Y113.666 E0.00281
G1 X122.000 Y114.791 E0.03529
G1 X121.232 Y114.791 E0.02407
G1 X121.232 Y111.819 E0.09321
G1 X122.135 Y111.819 E0.02832
G1 X122.457 Y111.848 E0.01013
G1 X122.739 Y111.942 E0.00931
G1 X122.908 Y112.053 E0.00635
G1 X123.032 Y112.188 E0.00575
G1 X123.120 Y112.353 E0.00585
G1 X123.177 Y112.611 E0.00828
G1 X123.170 Y112.847 E0.00742
G1 X123.108 Y113.062 E0.00700
G1 X122.998 Y113.247 E0.00678
G1 X122.885 Y113.364 E0.00508
G1 X122.803 Y113.419 E0.00308
G1 X122.868 Y113.503 E0.00333
G1 X123.473 Y114.737 E0.04311
G1 F8640
G1 X122.636 Y114.791 E-0.19361
G1 X122.185 Y113.826 E-0.24612
G1 X122.086 Y113.689 E-0.03903
G1 X122.000 Y113.666 E-0.02067
G1 X122.000 Y114.791 E-0.25990
G1 X121.997 Y114.791 E-0.00068
G1 E-0.04000 F2100.00000
G1 Z0.800 F10800.000
G1 X122.908 Y115.716
G1 Z0.200
G1 E0.80000 F2100.00000
G1 F1200
G1 X123.066 Y115.806 E0.00570
G1 X123.226 Y115.996 E0.00778
G1 X123.294 Y116.138 E0.00495
G1 X123.336 Y116.373 E0.00748
G1 X123.327 Y119.014 E0.08281
G1 X123.288 Y119.160 E0.00473
G1 X123.165 Y119.373 E0.00772
G1 X123.058 Y119.480 E0.00474
G1 X122.837 Y119.608 E0.00802
G1 X122.593 Y119.651 E0.00775
G1 X121.242 Y119.642 E0.04236
G1 X121.003 Y119.555 E0.00800
G1 X120.786 Y119.373 E0.00886
G1 X120.658 Y119.152 E0.00802
G1 X120.615 Y118.909 E0.00774
G1 X120.624 Y116.258 E0.08310
G1 X120.715 Y116.010 E0.00830
G1 X120.885 Y115.807 E0.00831
G1 X121.114 Y115.674 E0.00831
G1 X121.358 Y115.631 E0.00775
G1 X122.699 Y115.640 E0.04206
G1 X122.856 Y115.686 E0.00513
G1 F8640
G1 X123.066 Y115.806 E-0.05584
G1 X123.226 Y115.996 E-0.05730
G1 X123.294 Y116.138 E-0.03643
G1 X123.336 Y116.373 E-0.05508
G1 X123.328 Y118.778 E-0.55535
G1 E-0.04000 F2100.00000
G1 Z0.800 F10800.000
G1 X116.515 Y115.683
G1 Z0.200
G1 E0.80000 F2100.00000
G1 F1200
G1 X116.515 Y116.223 E0.01691
G1 X116.442 Y116.423 E0.00668
G1 X116.299 Y116.593 E0.00698
G1 X116.028 Y116.720 E0.00940
G1 X113.761 Y116.726 E0.07105
G1 X113.480 Y116.651 E0.00913
G1 X113.254 Y116.425 E0.01002
G1 X113.179 Y116.144 E0.00912
G1 X113.179 Y90.489 E0.80440
G1 X113.254 Y90.208 E0.00912
G1 X113.480 Y89.982 E0.01002
G1 X113.761 Y89.906 E0.00912
G1 X115.939 Y89.906 E0.06828
G1 X116.211 Y89.979 E0.00882
G1 X116.381 Y90.122 E0.00698
G1 X116.488 Y90.307 E0.00668
G1 X116.521 Y90.498 E0.00609
G1 X116.521 Y96.905 E0.20088
G1 X122.024 Y96.905 E0.17252
G1 X122.652 Y95.816 E0.03943
G1 X118.916 Y89.344 E0.23430
G1 X118.807 Y89.054 E0.00972
G1 X118.798 Y88.726 E0.01027
G1 X118.896 Y88.414 E0.01027
G1 X119.090 Y88.150 E0.01027
G1 X119.359 Y87.963 E0.01027
G1 X119.666 Y87.876 E0.00999
G1 X119.848 Y87.871 E0.00569
G1 X120.159 Y87.941 E0.00999
G1 X120.430 Y88.108 E0.00999
G1 X120.557 Y88.238 E0.00569
G1 X124.371 Y94.823 E0.23861
G1 X125.629 Y94.823 E0.03943
G1 X129.365 Y88.352 E0.23430
G1 X129.557 Y88.119 E0.00944
G1 X129.696 Y88.017 E0.00542
G1 X129.850 Y87.939 E0.00541
G1 X130.142 Y87.873 E0.00941
G1 X130.333 Y87.876 E0.00597
G1 X130.641 Y87.963 E0.01003
G1 X130.902 Y88.145 E0.00999
G1 X131.022 Y88.282 E0.00569
G1 X131.162 Y88.558 E0.00972
G1 X131.199 Y88.727 E0.00542
G1 X131.209 Y88.899 E0.00542
G1 X131.148 Y89.212 E0.00999
G1 X127.347 Y95.816 E0.23889
G1 X127.976 Y96.905 E0.03943
G1 X133.499 Y96.905 E0.17316
G1 X133.499 Y90.498 E0.20088
G1 X133.534 Y90.297 E0.00639
G1 X133.712 Y90.043 E0.00972
G1 X133.993 Y89.913 E0.00971
G1 X136.279 Y89.906 E0.07167
G1 X136.470 Y89.940 E0.00610
G1 X136.655 Y90.047 E0.00668
G1 X136.792 Y90.210 E0.00668
G1 X136.864 Y90.410 E0.00668
G1 X136.870 Y116.144 E0.80688
G1 X136.795 Y116.425 E0.00912
G1 X136.569 Y116.651 E0.01002
G1 X136.288 Y116.726 E0.00912
G1 X134.091 Y116.726 E0.06890
G1 X133.899 Y116.693 E0.00609
G1 X133.715 Y116.586 E0.00668
G1 X133.578 Y116.423 E0.00668
G1 X133.505 Y116.223 E0.00668
G1 X133.499 Y98.889 E0.54347
G1 X127.976 Y98.889 E0.17316
G1 X127.347 Y99.979 E0.03943
G1 X131.148 Y106.582 E0.23889
G1 X131.211 Y106.904 E0.01027
G1 X131.166 Y107.228 E0.01027
G1 X131.018 Y107.521 E0.01027
G1 X130.789 Y107.743 E0.00999
G1 X130.632 Y107.833 E0.00568
G1 X130.335 Y107.918 E0.00970
G1 X129.999 Y107.903 E0.01054
G1 X129.695 Y107.779 E0.01030
G1 X129.448 Y107.564 E0.01027
G1 X125.629 Y100.971 E0.23889
G1 X124.371 Y100.971 E0.03943
G1 X120.639 Y107.435 E0.23403
G1 X120.546 Y107.570 E0.00514
G1 X120.305 Y107.779 E0.00999
G1 X120.010 Y107.899 E0.00999
G1 X119.830 Y107.924 E0.00569
G1 X119.522 Y107.890 E0.00972
G1 X119.352 Y107.826 E0.00569
G1 X119.098 Y107.650 E0.00972
G1 X118.984 Y107.519 E0.00542
G1 X118.894 Y107.372 E0.00542
G1 X118.798 Y107.068 E0.00999
G1 X118.807 Y106.749 E0.00999
G1 X118.857 Y106.575 E0.00569
G1 X122.653 Y99.979 E0.23861
G1 X122.024 Y98.889 E0.03943
G1 X116.521 Y98.889 E0.17253
G1 X116.515 Y115.623 E0.52468
G1 F8640
G1 X116.515 Y116.223 E-0.13842
G1 X116.442 Y116.423 E-0.04917
G1 X116.299 Y116.593 E-0.05137
G1 X116.028 Y116.720 E-0.06924
G1 X114.071 Y116.726 E-0.45180
G1 E-0.04000 F2100.00000
G1 Z0.800 F10800.000
G1 X109.795 Y115.623
G1 Z0.200
G1 E0.80000 F2100.00000
G1 F1200
G1 X109.795 Y85.208 E0.95365
G1 X109.805 Y85.027 E0.00569
G1 X109.875 Y84.675 E0.01125
G1 X109.933 Y84.512 E0.00541
G1 X110.103 Y84.196 E0.01126
G1 X110.202 Y84.061 E0.00524
G1 X110.452 Y83.811 E0.01110
G1 X110.751 Y83.611 E0.01127
G1 X111.083 Y83.474 E0.01126
G1 X111.245 Y83.433 E0.00524
G1 X111.608 Y83.398 E0.01142
G1 X138.392 Y83.398 E0.83979
G1 X138.751 Y83.433 E0.01132
G1 X139.090 Y83.536 E0.01110
G1 X139.402 Y83.703 E0.01110
G1 X139.676 Y83.927 E0.01110
G1 X139.900 Y84.201 E0.01110
G1 X140.067 Y84.514 E0.01110
G1 X140.169 Y84.853 E0.01111
G1 X140.205 Y85.210 E0.01126
G1 X140.205 Y124.792 E1.24106
G1 X140.195 Y124.973 E0.00569
G1 X140.125 Y125.325 E0.01125
G1 X140.067 Y125.488 E0.00541
G1 X139.897 Y125.804 E0.01126
G1 X139.798 Y125.939 E0.00524
G1 X139.548 Y126.189 E0.01110
G1 X139.244 Y126.392 E0.01144
G1 X139.094 Y126.463 E0.00523
G1 X138.755 Y126.566 E0.01110
G1 X138.389 Y126.602 E0.01152
G1 X111.606 Y126.602 E0.83978
G1 X111.424 Y126.593 E0.00569
G1 X111.072 Y126.523 E0.01125
G1 X110.910 Y126.464 E0.00541
G1 X110.593 Y126.295 E0.01126
G1 X110.459 Y126.195 E0.00524
G1 X110.209 Y125.945 E0.01110
G1 X110.006 Y125.642 E0.01144
G1 X109.934 Y125.491 E0.00523
G1 X109.832 Y125.152 E0.01110
G1 X109.795 Y124.787 E0.01152
G1 X109.795 Y115.683 E0.28544
G1 F8640
G1 X109.795 Y112.392 E-0.76000
G1 E-0.04000 F2100.00000
G1 Z0.800 F10800.000
G1 X122.000 Y112.954
G1 Z0.200
G1 E0.80000 F2100.00000
G1 F1200
G1 X122.000 Y112.534 E0.01319
G1 X122.163 Y112.535 E0.00513
G1 X122.340 Y112.587 E0.00579
G1 X122.386 Y112.653 E0.00252
G1 X122.394 Y112.721 E0.00214
G1 X122.372 Y112.826 E0.00335
G1 X122.324 Y112.886 E0.00242
G1 X122.227 Y112.935 E0.00340
G1 X122.060 Y112.954 E0.00530
G1 F8640
G1 X122.000 Y112.534 E-0.09804
G1 X122.163 Y112.535 E-0.03776
G1 X122.340 Y112.587 E-0.04264
G1 X122.386 Y112.653 E-0.01853
G1 X122.394 Y112.721 E-0.01573
G1 X122.372 Y112.826 E-0.02471
G1 X122.324 Y112.886 E-0.01780
G1 X122.227 Y112.935 E-0.02504
G1 X122.060 Y112.954 E-0.03901
G1 E-0.48073 F2100.00000
G1 Z0.800 F10800.000
G1 X122.718 Y111.815
G1 Z0.200
G1 E0.80000 F2100.00000
G1 F1200
G1 X116.802 Y105.899 E0.26343
G1 X116.801 Y106.434 E0.01685
G1 X121.903 Y111.536 E0.22715
G1 X121.367 Y111.536 E0.01686
G1 X116.801 Y106.969 E0.20331
G1 X116.801 Y107.505 E0.01685
G1 X120.949 Y111.653 E0.18470
G1 X120.949 Y112.188 E0.01686
G1 X116.801 Y108.040 E0.18470
G1 X116.801 Y108.575 E0.01685
G1 X120.949 Y112.724 E0.18471
G1 X120.949 Y113.259 E0.01686
G1 X116.800 Y109.111 E0.18472
G1 X116.800 Y109.646 E0.01685
G1 X120.949 Y113.795 E0.18473
G1 X120.949 Y114.330 E0.01686
G1 X116.800 Y110.181 E0.18474
G1 X116.800 Y110.716 E0.01685
G1 X121.432 Y115.349 E0.20626
G1 X121.334 Y115.348 E0.00309
G1 X121.016 Y115.404 E0.01016
G1 X120.976 Y115.428 E0.00148
G1 X116.800 Y111.252 E0.18593
G1 X116.799 Y111.787 E0.01685
G1 X120.654 Y115.642 E0.17163
G1 X120.466 Y115.866 E0.00922
G1 X120.433 Y115.956 E0.00302
G1 X116.799 Y112.322 E0.16179
G1 X116.799 Y112.858 E0.01685
G1 X120.341 Y116.399 E0.15769
G1 X120.339 Y116.933 E0.01680
G1 X116.799 Y113.393 E0.15762
G1 X116.799 Y113.928 E0.01685
G1 X120.337 Y117.467 E0.15755
G1 X120.336 Y118.000 E0.01680
G1 X116.799 Y114.463 E0.15749
G1 X116.798 Y114.999 E0.01685
G1 X120.334 Y118.534 E0.15742
G1 X120.333 Y118.933 E0.01256
G1 X120.362 Y119.097 E0.00525
G1 X116.629 Y115.364 E0.16621
G1 F8640
G1 X118.956 Y117.692 E-0.76000
G1 E-0.04000 F2100.00000
G1 Z0.800 F10800.000
G1 X122.142 Y115.523
G1 Z0.200
G1 E0.80000 F2100.00000
G1 F1200
G1 X121.693 Y115.074 E0.01999
G1 X122.228 Y115.074 E0.01686
G1 X122.681 Y115.527 E0.02015
G1 F8640
G1 X122.228 Y115.074 E-0.14777
G1 X121.693 Y115.074 E-0.12364
G1 X122.142 Y115.523 E-0.14664
G1 E-0.38195 F2100.00000
G1 Z0.800 F10800.000
G1 X123.665 Y114.904
G1 Z0.200
G1 E0.80000 F2100.00000
G1 F1200
G1 X127.783 Y119.022 E0.18334
G1 X127.767 Y118.933 E0.00284
G1 X127.769 Y118.472 E0.01451
G1 X123.552 Y114.255 E0.18776
G1 X123.170 Y113.477 E0.02731
G1 X123.234 Y113.403 E0.00310
G1 X127.770 Y117.939 E0.20196
G1 X127.772 Y117.405 E0.01680
G1 X123.408 Y113.041 E0.19429
G1 X123.452 Y112.891 E0.00492
G1 X123.453 Y112.550 E0.01072
G1 X127.943 Y117.040 E0.19992
G1 F8640
G1 X125.616 Y114.713 E-0.76000
G1 E-0.04000 F2100.00000
G1 Z0.800 F10800.000
G1 X128.580 Y114.464
G1 Z0.200
G1 E0.80000 F2100.00000
G1 F1200
G1 X121.180 Y107.064 E0.32948
G1 X121.376 Y106.725 E0.01234
G1 X128.034 Y113.383 E0.29645
G1 X128.067 Y112.881 E0.01584
G1 X121.572 Y106.385 E0.28921
G1 X121.768 Y106.046 E0.01234
G1 X128.190 Y112.468 E0.28595
G1 X128.285 Y112.261 E0.00719
G1 X128.383 Y112.126 E0.00525
G1 X121.964 Y105.706 E0.28583
G1 X122.160 Y105.367 E0.01234
G1 X128.641 Y111.848 E0.28857
G1 X128.753 Y111.751 E0.00466
G1 X128.965 Y111.637 E0.00760
G1 X122.356 Y105.027 E0.29430
G1 X122.552 Y104.688 E0.01234
