; generated by Slic3r Prusa Edition 1.41.3+linux64 on 2019-06-26 at 19:08:20

; 

; external perimeters extrusion width = 0.45mm
; perimeters extrusion width = 0.45mm
; infill extrusion width = 0.45mm
; solid infill extrusion width = 0.45mm
; top infill extrusion width = 0.45mm
; first layer extrusion width = 0.42mm

M201 X9000 Y9000 Z500 E10000 ; sets maximum accelerations, mm/sec^2
M203 X500 Y500 Z12 E120 ; sets maximum feedrates, mm/sec
M204 P2000 R1500 T2000 ; sets acceleration (P, T) and retract acceleration (R), mm/sec^2
M205 X10.00 Y10.00 Z0.20 E2.50 ; sets the jerk limits, mm/sec
M205 S0 T0 ; sets the minimum extruding and travel feed rate, mm/sec
M107
M115 U3.1.0 ; tell printer latest fw version
M83  ; extruder relative mode
M204 S2000 T1500 ; MK2 firmware only supports the old M204 format
M104 S250 ; set extruder temp
M140 S80 ; set bed temp
M190 S80 ; wait for bed temp
M109 S250 ; wait for extruder temp
G28 W ; home all without mesh bed level
G80 ; mesh bed leveling
G1 Y-3.0 F1000.0 ; go outside print area
G92 E0.0
G1 X60.0 E9.0  F1000.0 ; intro line
G1 X100.0 E12.5  F1000.0 ; intro line
G92 E0.0
M900 K45; Filament gcode
G21 ; set units to millimeters
G90 ; use absolute coordinates
M83 ; use relative distances for extrusion
;BEFORE_LAYER_CHANGE
G92 E0.0
;0.2


G1 Z0.200 F10800.000
;AFTER_LAYER_CHANGE
;0.2
G1 E-0.80000 F2100.00000
G1 Z0.800 F10800.000
G1 X118.008 Y93.633
G1 Z0.200
G1 E0.80000 F2100.00000
M204 S1000
G1 F1200
G1 X118.482 Y93.181 E0.02054
G1 X119.056 Y92.865 E0.02054
G1 X119.690 Y92.703 E0.02054
G1 X130.004 Y92.684 E0.32337
G1 X130.924 Y92.857 E0.02936
G1 X131.722 Y93.348 E0.02936
G1 X132.290 Y94.093 E0.02936
G1 X132.553 Y94.992 E0.02936
G1 X132.565 Y114.778 E0.62038
G1 X132.505 Y115.304 E0.01660
G1 X132.337 Y115.809 E0.01672
G1 X131.982 Y116.379 E0.02103
G1 X131.492 Y116.837 E0.02103
G1 X130.896 Y117.154 E0.02116
G1 X130.243 Y117.304 E0.02103
G1 X119.953 Y117.315 E0.32264
G1 X119.435 Y117.253 E0.01635
G1 X118.941 Y117.087 E0.01635
G1 X118.353 Y116.717 E0.02177
G1 X117.883 Y116.200 E0.02189
G1 X117.572 Y115.579 E0.02177
G1 X117.438 Y114.894 E0.02189
G1 X117.435 Y95.222 E0.61679
G1 X117.495 Y94.696 E0.01660
G1 X117.663 Y94.191 E0.01672
G1 X117.976 Y93.684 E0.01866
G1 X118.295 Y93.884 F10800.000
G1 F1200
G1 X118.724 Y93.472 E0.01868
G1 X119.219 Y93.206 E0.01760
G1 X119.768 Y93.074 E0.01771
G1 X130.004 Y93.061 E0.32093
G1 X130.796 Y93.211 E0.02529
G1 X131.481 Y93.638 E0.02529
G1 X131.962 Y94.281 E0.02518
G1 X132.180 Y95.058 E0.02529
G1 X132.188 Y114.768 E0.61800
G1 X131.987 Y115.667 E0.02889
G1 X131.679 Y116.154 E0.01805
G1 X131.255 Y116.543 E0.01805
G1 X130.744 Y116.808 E0.01805
G1 X130.181 Y116.931 E0.01805
G1 X119.963 Y116.938 E0.32037
G1 X119.083 Y116.737 E0.02833
G1 X118.582 Y116.417 E0.01862
G1 X118.184 Y115.972 E0.01873
G1 X117.923 Y115.438 E0.01862
G1 X117.814 Y114.855 E0.01862
G1 X117.812 Y95.228 E0.61537
G1 X118.013 Y94.333 E0.02878
G1 X118.263 Y93.935 E0.01472
; PURGING FINISHED
G1 F8640
G1 X118.724 Y93.472 E-0.15106
G1 X119.219 Y93.206 E-0.12960
G1 X119.768 Y93.074 E-0.13044
G1 X121.279 Y93.072 E-0.34889
G1 E-0.04000 F2100.00000
G1 Z0.800 F10800.000
G1 X120.210 Y95.460
G1 Z0.200
G1 E0.80000 F2100.00000
G1 F1200
G1 X129.790 Y95.460 E0.30037
G1 X129.790 Y114.540 E0.59824
G1 X120.210 Y114.540 E0.30037
G1 X120.210 Y95.520 E0.59636
G1 F8640
G1 X123.501 Y95.499 E-0.76000
G1 E-0.04000 F2100.00000
G1 Z0.800 F10800.000
G1 X129.677 Y96.336
G1 Z0.200
G1 E0.80000 F2100.00000
G1 F1200
G1 X129.084 Y95.743 E0.02632
G1 X128.550 Y95.743 E0.01674
G1 X129.507 Y96.700 E0.04247
G1 X129.507 Y97.234 E0.01674
G1 X128.016 Y95.743 E0.06615
G1 X127.483 Y95.743 E0.01674
G1 X129.507 Y97.767 E0.08983
G1 X129.507 Y98.301 E0.01674
G1 X126.949 Y95.743 E0.11351
G1 X126.416 Y95.743 E0.01674
G1 X129.507 Y98.834 E0.13718
G1 X129.507 Y99.368 E0.01674
G1 X125.882 Y95.743 E0.16086
G1 X125.348 Y95.743 E0.01674
G1 X129.507 Y99.902 E0.18454
G1 X129.507 Y100.435 E0.01674
G1 X124.815 Y95.743 E0.20822
G1 X124.281 Y95.743 E0.01674
G1 X129.507 Y100.969 E0.23190
G1 X129.507 Y101.503 E0.01674
G1 X123.747 Y95.743 E0.25558
G1 X123.214 Y95.743 E0.01674
G1 X129.507 Y102.036 E0.27926
G1 X129.507 Y102.570 E0.01674
G1 X122.680 Y95.743 E0.30294
G1 X122.146 Y95.743 E0.01674
G1 X129.507 Y103.104 E0.32662
G1 X129.507 Y103.637 E0.01674
G1 X121.613 Y95.743 E0.35029
G1 X121.079 Y95.743 E0.01674
G1 X129.507 Y104.171 E0.37397
G1 X129.507 Y104.704 E0.01674
G1 X120.546 Y95.743 E0.39765
G1 X120.493 Y95.743 E0.00165
G1 X120.493 Y96.224 E0.01509
G1 X129.507 Y105.238 E0.39999
G1 X129.507 Y105.772 E0.01674
G1 X120.493 Y96.757 E0.39999
G1 X120.493 Y97.291 E0.01674
G1 X129.507 Y106.305 E0.39999
G1 X129.507 Y106.839 E0.01674
G1 X120.493 Y97.825 E0.39999
G1 X120.493 Y98.358 E0.01674
G1 X129.507 Y107.373 E0.39999
G1 X129.507 Y107.906 E0.01674
G1 X120.493 Y98.892 E0.39999
G1 X120.493 Y99.426 E0.01674
G1 X129.507 Y108.440 E0.39999
G1 X129.507 Y108.974 E0.01674
G1 X120.493 Y99.959 E0.39999
G1 X120.493 Y100.493 E0.01674
G1 X129.507 Y109.507 E0.39999
G1 X129.507 Y110.041 E0.01674
G1 X120.493 Y101.026 E0.39999
G1 X120.493 Y101.560 E0.01674
G1 X129.507 Y110.575 E0.39999
G1 X129.507 Y111.108 E0.01674
G1 X120.493 Y102.094 E0.39999
G1 X120.493 Y102.627 E0.01674
G1 X129.507 Y111.642 E0.39999
G1 X129.507 Y112.175 E0.01674
G1 X120.493 Y103.161 E0.39999
G1 X120.493 Y103.695 E0.01674
G1 X129.507 Y112.709 E0.39999
G1 X129.507 Y113.243 E0.01674
G1 X120.493 Y104.228 E0.39999
G1 X120.493 Y104.762 E0.01674
G1 X129.507 Y113.776 E0.39999
G1 X129.507 Y114.257 E0.01509
G1 X129.454 Y114.257 E0.00166
G1 X120.493 Y105.296 E0.39765
G1 X120.493 Y105.829 E0.01674
G1 X128.921 Y114.257 E0.37397
G1 X128.387 Y114.257 E0.01674
G1 X120.493 Y106.363 E0.35029
G1 X120.493 Y106.897 E0.01674
G1 X127.853 Y114.257 E0.32661
G1 X127.320 Y114.257 E0.01674
G1 X120.493 Y107.430 E0.30293
G1 X120.493 Y107.964 E0.01674
G1 X126.786 Y114.257 E0.27925
G1 X126.253 Y114.257 E0.01674
G1 X120.493 Y108.497 E0.25557
G1 X120.493 Y109.031 E0.01674
G1 X125.719 Y114.257 E0.23190
G1 X125.185 Y114.257 E0.01674
G1 X120.493 Y109.565 E0.20822
G1 X120.493 Y110.098 E0.01674
G1 X124.652 Y114.257 E0.18454
G1 X124.118 Y114.257 E0.01674
G1 X120.493 Y110.632 E0.16086
G1 X120.493 Y111.166 E0.01674
G1 X123.584 Y114.257 E0.13718
G1 X123.051 Y114.257 E0.01674
G1 X120.493 Y111.699 E0.11350
G1 X120.493 Y112.233 E0.01674
G1 X122.517 Y114.257 E0.08982
G1 X121.983 Y114.257 E0.01674
G1 X120.493 Y112.767 E0.06614
G1 X120.493 Y113.300 E0.01674
G1 X121.450 Y114.257 E0.04246
G1 X120.916 Y114.257 E0.01674
G1 X120.323 Y113.664 E0.02631
;BEFORE_LAYER_CHANGE
G92 E0.0
;0.35


G1 Z0.350 F10800.000
;AFTER_LAYER_CHANGE
;0.35
G1 E-0.80000 F2100.00000
G1 Z0.950 F10800.000
G1 X117.438 Y113.665
G1 Z0.350
G1 E0.80000 F2100.00000
G1 F2004
G1 X117.435 Y95.222 E0.44603
G1 X117.495 Y94.696 E0.01280
G1 X117.663 Y94.191 E0.01290
G1 X118.008 Y93.633 E0.01584
G1 X118.482 Y93.181 E0.01584
G1 X119.056 Y92.865 E0.01584
G1 X119.690 Y92.703 E0.01584
G1 X130.004 Y92.684 E0.24943
G1 X130.924 Y92.857 E0.02265
G1 X131.722 Y93.348 E0.02265
G1 X132.290 Y94.093 E0.02265
G1 X132.553 Y94.992 E0.02265
G1 X132.565 Y114.778 E0.47853
G1 X132.505 Y115.304 E0.01280
G1 X132.337 Y115.809 E0.01290
G1 X131.982 Y116.379 E0.01622
G1 X131.492 Y116.837 E0.01622
G1 X130.896 Y117.154 E0.01632
G1 X130.243 Y117.304 E0.01622
G1 X119.953 Y117.315 E0.24887
G1 X119.435 Y117.253 E0.01261
G1 X118.941 Y117.087 E0.01261
G1 X118.353 Y116.717 E0.01679
G1 X117.883 Y116.200 E0.01689
G1 X117.572 Y115.579 E0.01679
G1 X117.438 Y114.894 E0.01689
G1 X117.438 Y113.725 E0.02828
; PURGING FINISHED
G1 F8640
G1 X117.438 Y110.433 E-0.76000
G1 E-0.04000 F2100.00000
G1 Z0.950 F10800.000
G1 X120.225 Y113.725
G1 Z0.350
G1 E0.80000 F2100.00000
M204 S800
G1 F2004
G1 X120.225 Y95.475 E0.47551
G1 X129.775 Y95.475 E0.24883
G1 X129.775 Y114.525 E0.49636
G1 X120.225 Y114.525 E0.24883
G1 X120.225 Y113.785 E0.01929
M204 S1000
G1 F8640
G1 X120.225 Y110.493 E-0.76000
G1 E-0.04000 F2100.00000
G1 Z0.950 F10800.000
G1 X128.792 Y114.400
G1 Z0.350
G1 E0.80000 F2100.00000
M204 S2000
G1 F2004
G1 X129.462 Y113.730 E0.02504
G1 X129.462 Y113.130 E0.01585
G1 X128.380 Y114.212 E0.04043
G1 X127.781 Y114.212 E0.01585
G1 X129.462 Y112.531 E0.06286
G1 X129.462 Y111.931 E0.01586
G1 X127.181 Y114.212 E0.08528
G1 X126.581 Y114.212 E0.01586
G1 X129.462 Y111.331 E0.10770
G1 X129.462 Y110.732 E0.01586
G1 X125.982 Y114.212 E0.13012
G1 X125.382 Y114.212 E0.01585
G1 X129.462 Y110.132 E0.15255
G1 X129.462 Y109.533 E0.01585
G1 X124.783 Y114.212 E0.17497
G1 X124.183 Y114.212 E0.01586
G1 X129.462 Y108.933 E0.19739
G1 X129.462 Y108.333 E0.01586
G1 X123.583 Y114.212 E0.21981
G1 X122.984 Y114.212 E0.01585
G1 X129.462 Y107.734 E0.24224
G1 X129.462 Y107.134 E0.01585
G1 X122.384 Y114.212 E0.26466
G1 X121.784 Y114.212 E0.01586
G1 X129.462 Y106.535 E0.28708
G1 X129.462 Y105.935 E0.01585
G1 X121.185 Y114.212 E0.30950
G1 X120.585 Y114.212 E0.01585
G1 X129.462 Y105.335 E0.33193
G1 X129.462 Y104.736 E0.01585
G1 X120.538 Y113.659 E0.33368
G1 X120.538 Y113.059 E0.01585
G1 X129.462 Y104.136 E0.33368
G1 X129.462 Y103.536 E0.01585
G1 X120.538 Y112.460 E0.33368
G1 X120.538 Y111.860 E0.01585
G1 X129.462 Y102.937 E0.33368
G1 X129.462 Y102.337 E0.01585
G1 X120.538 Y111.260 E0.33368
G1 X120.538 Y110.661 E0.01585
G1 X129.462 Y101.738 E0.33368
G1 X129.462 Y101.138 E0.01585
G1 X120.538 Y110.061 E0.33368
G1 X120.538 Y109.462 E0.01586
G1 X129.462 Y100.538 E0.33368
G1 X129.462 Y99.939 E0.01586
G1 X120.538 Y108.862 E0.33368
G1 X120.538 Y108.262 E0.01585
G1 X129.462 Y99.339 E0.33368
G1 X129.462 Y98.739 E0.01585
G1 X120.538 Y107.663 E0.33368
G1 X120.538 Y107.063 E0.01585
G1 X129.462 Y98.140 E0.33368
G1 X129.462 Y97.540 E0.01585
G1 X120.538 Y106.463 E0.33368
G1 X120.538 Y105.864 E0.01586
G1 X129.462 Y96.941 E0.33368
G1 X129.462 Y96.341 E0.01586
G1 X120.538 Y105.264 E0.33368
G1 X120.538 Y104.665 E0.01585
G1 X129.415 Y95.788 E0.33192
G1 X128.815 Y95.788 E0.01585
G1 X120.538 Y104.065 E0.30950
G1 X120.538 Y103.465 E0.01585
G1 X128.215 Y95.788 E0.28708
G1 X127.616 Y95.788 E0.01586
G1 X120.538 Y102.866 E0.26465
G1 X120.538 Y102.266 E0.01585
G1 X127.016 Y95.788 E0.24223
G1 X126.417 Y95.788 E0.01585
G1 X120.538 Y101.667 E0.21981
G1 X120.538 Y101.067 E0.01586
G1 X125.817 Y95.788 E0.19739
G1 X125.217 Y95.788 E0.01586
G1 X120.538 Y100.467 E0.17496
G1 X120.538 Y99.868 E0.01585
G1 X124.618 Y95.788 E0.15254
G1 X124.018 Y95.788 E0.01585
G1 X120.538 Y99.268 E0.13012
G1 X120.538 Y98.668 E0.01586
G1 X123.418 Y95.788 E0.10770
G1 X122.819 Y95.788 E0.01585
G1 X120.538 Y98.069 E0.08528
G1 X120.538 Y97.469 E0.01586
G1 X122.219 Y95.788 E0.06285
G1 X121.620 Y95.788 E0.01585
G1 X120.538 Y96.870 E0.04043
G1 X120.538 Y96.270 E0.01585
G1 X121.208 Y95.600 E0.02504
M204 S1000
;BEFORE_LAYER_CHANGE
G92 E0.0
;0.5


G1 Z0.500 F10800.000
;AFTER_LAYER_CHANGE
;0.5
G1 E-0.80000 F2100.00000
G1 Z1.100 F10800.000
G1 X121.203 Y92.700
G1 Z0.500
G1 E0.80000 F2100.00000
G1 F2003
G1 X130.004 Y92.684 E0.21286
G1 X130.924 Y92.857 E0.02265
G1 X131.722 Y93.348 E0.02265
G1 X132.290 Y94.093 E0.02265
G1 X132.553 Y94.992 E0.02265
G1 X132.565 Y114.778 E0.47853
G1 X132.505 Y115.304 E0.01280
G1 X132.337 Y115.809 E0.01290
G1 X131.982 Y116.379 E0.01622
G1 X131.492 Y116.837 E0.01622
G1 X130.896 Y117.154 E0.01632
G1 X130.243 Y117.304 E0.01622
G1 X119.953 Y117.315 E0.24887
G1 X119.435 Y117.253 E0.01261
G1 X118.941 Y117.087 E0.01261
G1 X118.353 Y116.717 E0.01679
G1 X117.883 Y116.200 E0.01689
G1 X117.572 Y115.579 E0.01679
G1 X117.438 Y114.894 E0.01689
G1 X117.435 Y95.222 E0.47576
G1 X117.495 Y94.696 E0.01280
G1 X117.663 Y94.191 E0.01290
G1 X118.008 Y93.633 E0.01584
G1 X118.482 Y93.181 E0.01584
G1 X119.056 Y92.865 E0.01584
G1 X119.690 Y92.703 E0.01584
G1 X121.143 Y92.700 E0.03512
; PURGING FINISHED
G1 F8640
G1 X124.434 Y92.695 E-0.76000
G1 E-0.04000 F2100.00000
G1 Z1.100 F10800.000
G1 X121.143 Y95.475
G1 Z0.500
G1 E0.80000 F2100.00000
M204 S800
G1 F2003
G1 X129.775 Y95.475 E0.22492
G1 X129.775 Y114.525 E0.49636
G1 X120.225 Y114.525 E0.24883
G1 X120.225 Y95.475 E0.49636
G1 X121.083 Y95.475 E0.02235
M204 S1000
G1 F8640
G1 X124.374 Y95.475 E-0.76000
G1 E-0.04000 F2100.00000
G1 Z1.100 F10800.000
G1 X129.650 Y96.458
G1 Z0.500
G1 E0.80000 F2100.00000
M204 S2000
G1 F2003
G1 X128.980 Y95.788 E0.02504
G1 X128.380 Y95.788 E0.01585
G1 X129.462 Y96.870 E0.04043
G1 X129.462 Y97.469 E0.01585
G1 X127.781 Y95.788 E0.06286
G1 X127.181 Y95.788 E0.01585
G1 X129.462 Y98.069 E0.08528
G1 X129.462 Y98.669 E0.01586
G1 X126.581 Y95.788 E0.10770
G1 X125.982 Y95.788 E0.01586
G1 X129.462 Y99.268 E0.13012
G1 X129.462 Y99.868 E0.01585
G1 X125.382 Y95.788 E0.15255
G1 X124.783 Y95.788 E0.01586
G1 X129.462 Y100.467 E0.17497
G1 X129.462 Y101.067 E0.01586
G1 X124.183 Y95.788 E0.19739
G1 X123.583 Y95.788 E0.01585
G1 X129.462 Y101.667 E0.21981
G1 X129.462 Y102.266 E0.01585
G1 X122.984 Y95.788 E0.24224
G1 X122.384 Y95.788 E0.01585
G1 X129.462 Y102.866 E0.26466
G1 X129.462 Y103.465 E0.01585
G1 X121.785 Y95.788 E0.28708
G1 X121.185 Y95.788 E0.01586
G1 X129.462 Y104.065 E0.30950
G1 X129.462 Y104.665 E0.01586
G1 X120.585 Y95.788 E0.33193
G1 X120.538 Y95.788 E0.00124
G1 X120.538 Y96.341 E0.01461
G1 X129.462 Y105.264 E0.33368
G1 X129.462 Y105.864 E0.01585
G1 X120.538 Y96.941 E0.33368
G1 X120.538 Y97.540 E0.01586
G1 X129.462 Y106.464 E0.33368
G1 X129.462 Y107.063 E0.01586
G1 X120.538 Y98.140 E0.33368
G1 X120.538 Y98.740 E0.01585
G1 X129.462 Y107.663 E0.33368
G1 X129.462 Y108.262 E0.01585
G1 X120.538 Y99.339 E0.33368
G1 X120.538 Y99.939 E0.01586
G1 X129.462 Y108.862 E0.33368
G1 X129.462 Y109.462 E0.01586
G1 X120.538 Y100.538 E0.33368
G1 X120.538 Y101.138 E0.01585
G1 X129.462 Y110.061 E0.33368
G1 X129.462 Y110.661 E0.01585
G1 X120.538 Y101.738 E0.33368
G1 X120.538 Y102.337 E0.01585
G1 X129.462 Y111.261 E0.33368
G1 X129.462 Y111.860 E0.01585
G1 X120.538 Y102.937 E0.33368
G1 X120.538 Y103.537 E0.01586
G1 X129.462 Y112.460 E0.33368
G1 X129.462 Y113.059 E0.01586
G1 X120.538 Y104.136 E0.33368
G1 X120.538 Y104.736 E0.01585
G1 X129.462 Y113.659 E0.33368
G1 X129.462 Y114.212 E0.01461
G1 X129.415 Y114.212 E0.00124
G1 X120.538 Y105.335 E0.33192
G1 X120.538 Y105.935 E0.01585
G1 X128.815 Y114.212 E0.30950
G1 X128.215 Y114.212 E0.01586
G1 X120.538 Y106.535 E0.28708
G1 X120.538 Y107.134 E0.01585
G1 X127.616 Y114.212 E0.26465
G1 X127.016 Y114.212 E0.01585
G1 X120.538 Y107.734 E0.24223
G1 X120.538 Y108.333 E0.01585
G1 X126.417 Y114.212 E0.21981
G1 X125.817 Y114.212 E0.01585
G1 X120.538 Y108.933 E0.19739
G1 X120.538 Y109.533 E0.01586
G1 X125.217 Y114.212 E0.17496
G1 X124.618 Y114.212 E0.01585
G1 X120.538 Y110.132 E0.15254
G1 X120.538 Y110.732 E0.01585
G1 X124.018 Y114.212 E0.13012
G1 X123.418 Y114.212 E0.01585
G1 X120.538 Y111.332 E0.10770
G1 X120.538 Y111.931 E0.01585
G1 X122.819 Y114.212 E0.08528
G1 X122.219 Y114.212 E0.01586
G1 X120.538 Y112.531 E0.06285
G1 X120.538 Y113.130 E0.01586
G1 X121.620 Y114.212 E0.04043
G1 X121.020 Y114.212 E0.01585
G1 X120.350 Y113.542 E0.02504
M204 S1000
M106 S127.5
;BEFORE_LAYER_CHANGE
G92 E0.0
;0.65


G1 Z0.650 F10800.000
;AFTER_LAYER_CHANGE
;0.65
; PURGING FINISHED
G1 X120.225 Y113.542
M204 S800
G1 F1783
G1 X120.225 Y95.475 E0.47075
G1 X129.775 Y95.475 E0.24883
G1 X129.775 Y114.525 E0.49636
G1 X120.225 Y114.525 E0.24883
G1 X120.225 Y113.602 E0.02405
M204 S1000
G1 F8640
G1 X120.225 Y110.311 E-0.76000
G1 E-0.04000 F2100.00000
G1 Z1.250 F10800.000
G1 X128.792 Y114.400
G1 Z0.650
G1 E0.80000 F2100.00000
M204 S2000
G1 F1783
G1 X129.462 Y113.730 E0.02504
G1 X129.462 Y113.130 E0.01585
G1 X128.380 Y114.212 E0.04043
G1 X127.781 Y114.212 E0.01585
G1 X129.462 Y112.531 E0.06286
G1 X129.462 Y111.931 E0.01586
G1 X127.181 Y114.212 E0.08528
G1 X126.581 Y114.212 E0.01586
G1 X129.462 Y111.331 E0.10770
G1 X129.462 Y110.732 E0.01586
G1 X125.982 Y114.212 E0.13012
G1 X125.382 Y114.212 E0.01585
G1 X129.462 Y110.132 E0.15255
G1 X129.462 Y109.533 E0.01585
G1 X124.783 Y114.212 E0.17497
G1 X124.183 Y114.212 E0.01586
G1 X129.462 Y108.933 E0.19739
G1 X129.462 Y108.333 E0.01586
G1 X123.583 Y114.212 E0.21981
G1 X122.984 Y114.212 E0.01585
G1 X129.462 Y107.734 E0.24224
G1 X129.462 Y107.134 E0.01585
