; generated by Slic3r Prusa Edition 1.41.3+linux64 on 2019-06-26 at 19:08:25

; 

; external perimeters extrusion width = 0.45mm
; perimeters extrusion width = 0.45mm
; infill extrusion width = 0.45mm
; solid infill extrusion width = 0.45mm
; top infill extrusion width = 0.45mm
; first layer extrusion width = 0.42mm

M201 X9000 Y9000 Z500 E10000 ; sets maximum accelerations, mm/sec^2
M203 X500 Y500 Z12 E120 ; sets maximum feedrates, mm/sec
M204 P2000 R1500 T2000 ; sets acceleration (P, T) and retract acceleration (R), mm/sec^2
M205 X10.00 Y10.00 Z0.20 E2.50 ; sets the jerk limits, mm/sec
M205 S0 T0 ; sets the minimum extruding and travel feed rate, mm/sec
M107
M115 U3.1.0 ; tell printer latest fw version
M83  ; extruder relative mode
M204 S2000 T1500 ; MK2 firmware only supports the old M204 format
M104 S250 ; set extruder temp
M140 S80 ; set bed temp
M190 S80 ; wait for bed temp
M109 S250 ; wait for extruder temp
G28 W ; home all without mesh bed level
G80 ; mesh bed leveling
G1 Y-3.0 F1000.0 ; go outside print area
G92 E0.0
G1 X60.0 E9.0  F1000.0 ; intro line
G1 X100.0 E12.5  F1000.0 ; intro line
G92 E0.0
M900 K45; Filament gcode
G21 ; set units to millimeters
G90 ; use absolute coordinates
M83 ; use relative distances for extrusion
;BEFORE_LAYER_CHANGE
G92 E0.0
;0.2


G1 Z0.200 F10800.000
;AFTER_LAYER_CHANGE
;0.2
G1 E-0.80000 F2100.00000
G1 Z0.800 F10800.000
G1 X105.708 Y89.078
G1 Z0.200
G1 E0.80000 F2100.00000
M204 S1000
G1 F1200
G1 X107.525 Y87.103 E0.08416
G1 X108.929 Y85.832 E0.05936
G1 X111.078 Y84.218 E0.08427
G1 X113.385 Y82.846 E0.08416
G1 X115.094 Y82.031 E0.05936
G1 X117.615 Y81.100 E0.08427
G1 X120.222 Y80.446 E0.08427
G1 X122.092 Y80.155 E0.05934
G1 X124.794 Y79.986 E0.08487
G1 X127.494 Y80.109 E0.08473
G1 X130.146 Y80.520 E0.08416
G1 X131.983 Y80.979 E0.05936
G1 X134.520 Y81.867 E0.08427
G1 X136.976 Y83.037 E0.08530
G1 X139.263 Y84.449 E0.08427
G1 X140.777 Y85.586 E0.05936
G1 X142.769 Y87.391 E0.08427
G1 X144.553 Y89.396 E0.08416
G1 X145.679 Y90.922 E0.05945
G1 X147.069 Y93.219 E0.08419
G1 X148.218 Y95.685 E0.08530
G1 X149.083 Y98.230 E0.08427
G1 X149.526 Y100.070 E0.05937
G1 X149.914 Y102.730 E0.08427
G1 X150.013 Y105.412 E0.08416
G1 X149.910 Y107.303 E0.05936
G1 X149.520 Y109.962 E0.08427
G1 X148.847 Y112.561 E0.08416
G1 X148.205 Y114.345 E0.05945
G1 X147.070 Y116.778 E0.08419
G1 X145.679 Y119.078 E0.08427
G1 X144.028 Y121.240 E0.08530
G1 X142.745 Y122.633 E0.05937
G1 X140.751 Y124.435 E0.08427
G1 X138.578 Y126.010 E0.08416
G1 X136.950 Y126.977 E0.05936
G1 X134.523 Y128.132 E0.08427
G1 X131.990 Y129.019 E0.08416
G1 X130.150 Y129.479 E0.05945
G1 X127.497 Y129.890 E0.08419
G1 X124.797 Y130.014 E0.08473
G1 X122.097 Y129.845 E0.08484
G1 X120.226 Y129.554 E0.05937
G1 X117.619 Y128.901 E0.08427
G1 X115.100 Y127.972 E0.08416
G1 X113.391 Y127.157 E0.05936
G1 X111.081 Y125.784 E0.08427
G1 X108.934 Y124.172 E0.08416
G1 X107.528 Y122.900 E0.05945
G1 X105.710 Y120.924 E0.08419
G1 X104.115 Y118.765 E0.08416
G1 X103.134 Y117.146 E0.05937
G1 X101.957 Y114.730 E0.08427
G1 X101.036 Y112.170 E0.08530
G1 X100.406 Y109.557 E0.08427
G1 X100.132 Y107.683 E0.05936
G1 X99.987 Y105.000 E0.08427
G1 X100.135 Y102.287 E0.08517
G1 X100.569 Y99.635 E0.08427
G1 X101.045 Y97.802 E0.05937
G1 X101.954 Y95.277 E0.08416
G1 X103.131 Y92.860 E0.08427
G1 X104.111 Y91.241 E0.05936
G1 X105.672 Y89.127 E0.08239
; PURGING FINISHED
G1 F8640
G1 X107.525 Y87.103 E-0.63354
G1 X107.931 Y86.736 E-0.12646
G1 E-0.04000 F2100.00000
G1 Z0.800 F10800.000
G1 X107.902 Y90.958
G1 Z0.200
G1 E0.80000 F2100.00000
G1 F1200
G1 X108.713 Y90.019 E0.03889
G1 X109.281 Y89.424 E0.02580
G1 X109.871 Y88.851 E0.02580
G1 X110.481 Y88.299 E0.02580
G1 X111.112 Y87.771 E0.02580
G1 X111.762 Y87.267 E0.02580
G1 X112.430 Y86.787 E0.02580
G1 X113.116 Y86.332 E0.02580
G1 X113.818 Y85.903 E0.02580
G1 X114.536 Y85.501 E0.02580
G1 X115.268 Y85.125 E0.02580
G1 X116.013 Y84.777 E0.02580
G1 X116.771 Y84.457 E0.02580
G1 X117.540 Y84.165 E0.02580
G1 X118.316 Y83.904 E0.02567
G1 X119.109 Y83.669 E0.02592
G1 X119.906 Y83.464 E0.02580
G1 X120.710 Y83.290 E0.02580
G1 X121.520 Y83.145 E0.02580
G1 X122.334 Y83.031 E0.02580
G1 X123.153 Y82.947 E0.02580
G1 X123.974 Y82.893 E0.02580
G1 X124.792 Y82.871 E0.02567
G1 X125.619 Y82.878 E0.02592
G1 X126.441 Y82.916 E0.02580
G1 X127.261 Y82.985 E0.02580
G1 X128.077 Y83.084 E0.02580
G1 X128.890 Y83.214 E0.02580
G1 X129.697 Y83.373 E0.02580
G1 X130.498 Y83.563 E0.02580
G1 X131.291 Y83.782 E0.02580
G1 X132.071 Y84.029 E0.02567
G1 X132.849 Y84.308 E0.02592
G1 X133.613 Y84.614 E0.02580
G1 X134.365 Y84.948 E0.02580
G1 X135.104 Y85.310 E0.02580
G1 X135.829 Y85.699 E0.02580
G1 X136.539 Y86.115 E0.02580
G1 X137.233 Y86.556 E0.02580
G1 X137.907 Y87.022 E0.02567
G1 X138.569 Y87.516 E0.02592
G1 X139.210 Y88.032 E0.02580
G1 X139.830 Y88.572 E0.02580
G1 X140.431 Y89.135 E0.02580
G1 X141.010 Y89.719 E0.02580
G1 X141.564 Y90.322 E0.02567
G1 X142.101 Y90.951 E0.02592
G1 X142.611 Y91.596 E0.02580
G1 X143.097 Y92.260 E0.02580
G1 X143.558 Y92.941 E0.02580
G1 X143.994 Y93.639 E0.02580
G1 X144.403 Y94.353 E0.02580
G1 X144.785 Y95.082 E0.02580
G1 X145.140 Y95.824 E0.02580
G1 X145.467 Y96.579 E0.02580
G1 X145.766 Y97.345 E0.02580
G1 X146.036 Y98.122 E0.02580
G1 X146.278 Y98.909 E0.02580
G1 X146.489 Y99.704 E0.02580
G1 X146.671 Y100.506 E0.02580
G1 X146.823 Y101.315 E0.02580
G1 X146.945 Y102.128 E0.02580
G1 X147.037 Y102.946 E0.02580
G1 X147.098 Y103.766 E0.02580
G1 X147.128 Y104.589 E0.02580
G1 X147.128 Y105.411 E0.02580
G1 X147.098 Y106.234 E0.02580
G1 X147.037 Y107.054 E0.02580
G1 X146.945 Y107.872 E0.02580
G1 X146.823 Y108.685 E0.02580
G1 X146.671 Y109.494 E0.02580
G1 X146.490 Y110.292 E0.02567
G1 X146.278 Y111.091 E0.02592
G1 X146.036 Y111.878 E0.02580
G1 X145.768 Y112.651 E0.02567
G1 X145.467 Y113.421 E0.02592
G1 X145.140 Y114.176 E0.02580
G1 X144.785 Y114.918 E0.02580
G1 X144.403 Y115.647 E0.02580
G1 X143.994 Y116.361 E0.02580
G1 X143.558 Y117.059 E0.02580
G1 X143.097 Y117.740 E0.02580
G1 X142.611 Y118.404 E0.02580
G1 X142.101 Y119.049 E0.02580
G1 X141.567 Y119.675 E0.02580
G1 X141.010 Y120.281 E0.02580
G1 X140.431 Y120.865 E0.02580
G1 X139.830 Y121.428 E0.02580
G1 X139.210 Y121.968 E0.02580
G1 X138.569 Y122.484 E0.02580
G1 X137.910 Y122.976 E0.02580
G1 X137.233 Y123.444 E0.02580
G1 X136.539 Y123.885 E0.02580
G1 X135.829 Y124.301 E0.02580
G1 X135.104 Y124.690 E0.02580
G1 X134.365 Y125.052 E0.02580
G1 X133.613 Y125.386 E0.02580
G1 X132.849 Y125.692 E0.02580
G1 X132.075 Y125.970 E0.02580
G1 X131.291 Y126.218 E0.02580
G1 X130.498 Y126.437 E0.02580
G1 X129.697 Y126.627 E0.02580
G1 X128.890 Y126.786 E0.02580
G1 X128.077 Y126.916 E0.02580
G1 X127.261 Y127.015 E0.02580
G1 X126.441 Y127.084 E0.02580
G1 X125.619 Y127.122 E0.02580
G1 X124.796 Y127.129 E0.02580
G1 X123.974 Y127.107 E0.02580
G1 X123.153 Y127.053 E0.02580
G1 X122.334 Y126.969 E0.02580
G1 X121.524 Y126.855 E0.02567
G1 X120.710 Y126.710 E0.02592
G1 X119.906 Y126.536 E0.02580
G1 X119.109 Y126.331 E0.02580
G1 X118.320 Y126.098 E0.02580
G1 X117.540 Y125.835 E0.02580
G1 X116.771 Y125.543 E0.02580
G1 X116.013 Y125.223 E0.02580
G1 X115.268 Y124.875 E0.02580
G1 X114.536 Y124.499 E0.02580
G1 X113.818 Y124.097 E0.02580
G1 X113.116 Y123.668 E0.02580
G1 X112.430 Y123.213 E0.02580
G1 X111.762 Y122.733 E0.02580
G1 X111.115 Y122.231 E0.02567
G1 X110.481 Y121.701 E0.02592
G1 X109.871 Y121.149 E0.02580
G1 X109.281 Y120.576 E0.02580
G1 X108.713 Y119.981 E0.02580
G1 X108.167 Y119.365 E0.02580
G1 X107.645 Y118.729 E0.02580
G1 X107.146 Y118.074 E0.02580
G1 X106.675 Y117.405 E0.02567
G1 X106.225 Y116.712 E0.02592
G1 X105.802 Y116.006 E0.02580
G1 X105.406 Y115.285 E0.02580
G1 X105.038 Y114.549 E0.02580
G1 X104.697 Y113.800 E0.02580
G1 X104.383 Y113.040 E0.02580
G1 X104.099 Y112.268 E0.02580
G1 X103.843 Y111.486 E0.02580
G1 X103.617 Y110.695 E0.02580
G1 X103.420 Y109.896 E0.02580
G1 X103.253 Y109.090 E0.02580
G1 X103.116 Y108.279 E0.02580
G1 X103.009 Y107.463 E0.02580
G1 X102.933 Y106.644 E0.02580
G1 X102.887 Y105.823 E0.02580
G1 X102.871 Y105.000 E0.02580
G1 X102.887 Y104.177 E0.02580
G1 X102.933 Y103.356 E0.02580
G1 X103.009 Y102.537 E0.02580
G1 X103.116 Y101.721 E0.02580
G1 X103.253 Y100.910 E0.02580
G1 X103.420 Y100.104 E0.02580
G1 X103.617 Y99.305 E0.02580
G1 X103.843 Y98.514 E0.02580
G1 X104.099 Y97.732 E0.02580
G1 X104.382 Y96.964 E0.02567
G1 X104.696 Y96.200 E0.02592
G1 X105.038 Y95.451 E0.02580
G1 X105.406 Y94.715 E0.02580
G1 X105.800 Y93.998 E0.02567
G1 X106.225 Y93.288 E0.02592
G1 X106.673 Y92.598 E0.02580
G1 X107.146 Y91.926 E0.02580
G1 X107.864 Y91.004 E0.03661
G1 X107.482 Y90.701 F10800.000
G1 F1200
G1 X108.095 Y89.979 E0.02969
G1 X108.649 Y89.377 E0.02563
G1 X109.229 Y88.791 E0.02588
G1 X109.828 Y88.229 E0.02575
G1 X110.444 Y87.692 E0.02563
G1 X111.085 Y87.172 E0.02588
G1 X111.742 Y86.678 E0.02575
G1 X112.416 Y86.209 E0.02575
G1 X113.103 Y85.767 E0.02563
G1 X113.813 Y85.345 E0.02588
G1 X114.534 Y84.952 E0.02575
G1 X115.269 Y84.585 E0.02575
G1 X116.013 Y84.247 E0.02563
G1 X116.776 Y83.932 E0.02588
G1 X117.547 Y83.648 E0.02575
G1 X118.327 Y83.391 E0.02575
G1 X119.112 Y83.164 E0.02563
G1 X119.913 Y82.964 E0.02588
G1 X120.716 Y82.793 E0.02575
G1 X121.526 Y82.652 E0.02575
G1 X122.336 Y82.541 E0.02563
G1 X123.157 Y82.459 E0.02588
G1 X123.976 Y82.407 E0.02575
G1 X124.798 Y82.385 E0.02575
G1 X125.615 Y82.392 E0.02563
G1 X126.439 Y82.429 E0.02588
G1 X127.258 Y82.496 E0.02575
G1 X128.074 Y82.593 E0.02575
G1 X128.881 Y82.719 E0.02563
G1 X129.692 Y82.875 E0.02588
G1 X130.492 Y83.060 E0.02575
G1 X131.285 Y83.274 E0.02575
G1 X132.066 Y83.515 E0.02563
G1 X132.845 Y83.787 E0.02588
G1 X133.610 Y84.086 E0.02575
G1 X134.364 Y84.412 E0.02575
G1 X135.102 Y84.764 E0.02563
G1 X135.834 Y85.146 E0.02588
G1 X136.547 Y85.553 E0.02575
G1 X137.246 Y85.985 E0.02575
G1 X137.925 Y86.440 E0.02563
G1 X138.594 Y86.923 E0.02588
G1 X139.241 Y87.429 E0.02575
G1 X139.870 Y87.958 E0.02575
G1 X140.476 Y88.506 E0.02563
G1 X141.068 Y89.082 E0.02588
G1 X141.635 Y89.675 E0.02575
G1 X142.178 Y90.287 E0.02563
G1 X142.703 Y90.923 E0.02588
G1 X143.203 Y91.575 E0.02575
G1 X143.678 Y92.245 E0.02575
G1 X144.127 Y92.928 E0.02563
G1 X144.555 Y93.634 E0.02588
G1 X144.955 Y94.351 E0.02575
G1 X145.328 Y95.083 E0.02575
G1 X145.673 Y95.824 E0.02563
G1 X145.994 Y96.584 E0.02588
G1 X146.286 Y97.352 E0.02575
G1 X146.550 Y98.130 E0.02575
G1 X146.784 Y98.913 E0.02563
G1 X146.991 Y99.712 E0.02588
G1 X147.169 Y100.514 E0.02575
G1 X147.317 Y101.322 E0.02575
G1 X147.436 Y102.131 E0.02563
G1 X147.525 Y102.951 E0.02588
G1 X147.585 Y103.770 E0.02575
G1 X147.615 Y104.591 E0.02575
G1 X147.615 Y105.409 E0.02563
G1 X147.585 Y106.233 E0.02588
G1 X147.525 Y107.049 E0.02563
G1 X147.436 Y107.865 E0.02575
G1 X147.317 Y108.678 E0.02575
G1 X147.168 Y109.490 E0.02588
G1 X146.991 Y110.288 E0.02563
G1 X146.785 Y111.083 E0.02575
G1 X146.550 Y111.870 E0.02575
G1 X146.285 Y112.651 E0.02588
G1 X145.994 Y113.416 E0.02563
G1 X145.675 Y114.172 E0.02575
G1 X145.328 Y114.917 E0.02575
G1 X144.953 Y115.652 E0.02588
G1 X144.555 Y116.366 E0.02563
G1 X144.129 Y117.069 E0.02575
G1 X143.678 Y117.755 E0.02575
G1 X143.201 Y118.428 E0.02588
G1 X142.703 Y119.077 E0.02563
G1 X142.180 Y119.710 E0.02575
G1 X141.635 Y120.325 E0.02575
G1 X141.065 Y120.921 E0.02588
G1 X140.479 Y121.491 E0.02563
G1 X139.870 Y122.042 E0.02575
G1 X139.241 Y122.571 E0.02575
G1 X138.591 Y123.079 E0.02588
G1 X137.928 Y123.558 E0.02563
G1 X137.246 Y124.015 E0.02575
G1 X136.547 Y124.447 E0.02575
G1 X135.830 Y124.856 E0.02588
G1 X135.106 Y125.234 E0.02563
G1 X134.364 Y125.588 E0.02575
G1 X133.610 Y125.914 E0.02575
G1 X132.842 Y126.214 E0.02588
G1 X132.070 Y126.484 E0.02563
G1 X131.285 Y126.726 E0.02575
G1 X130.492 Y126.940 E0.02575
G1 X129.688 Y127.126 E0.02588
G1 X128.885 Y127.281 E0.02563
G1 X128.074 Y127.407 E0.02575
G1 X127.258 Y127.504 E0.02575
G1 X126.436 Y127.571 E0.02588
G1 X125.619 Y127.608 E0.02563
G1 X124.798 Y127.615 E0.02575
G1 X123.973 Y127.593 E0.02588
G1 X123.157 Y127.541 E0.02563
G1 X122.339 Y127.459 E0.02575
G1 X121.526 Y127.348 E0.02575
G1 X120.713 Y127.206 E0.02588
G1 X119.913 Y127.036 E0.02563
G1 X119.116 Y126.837 E0.02575
G1 X118.327 Y126.609 E0.02575
G1 X117.543 Y126.351 E0.02588
G1 X116.776 Y126.068 E0.02563
G1 X116.017 Y125.755 E0.02575
G1 X115.269 Y125.415 E0.02575
G1 X114.531 Y125.046 E0.02588
G1 X113.813 Y124.655 E0.02563
G1 X113.107 Y124.236 E0.02575
G1 X112.416 Y123.791 E0.02575
G1 X111.739 Y123.319 E0.02588
G1 X111.085 Y122.828 E0.02563
G1 X110.447 Y122.311 E0.02575
G1 X109.828 Y121.771 E0.02575
G1 X109.227 Y121.206 E0.02588
G1 X108.651 Y120.625 E0.02563
G1 X108.095 Y120.021 E0.02575
G1 X107.560 Y119.398 E0.02575
G1 X107.047 Y118.752 E0.02588
G1 X106.561 Y118.094 E0.02563
G1 X106.098 Y117.416 E0.02575
G1 X105.660 Y116.721 E0.02575
G1 X105.245 Y116.007 E0.02588
G1 X104.860 Y115.286 E0.02563
G1 X104.500 Y114.548 E0.02575
G1 X104.167 Y113.797 E0.02575
G1 X103.860 Y113.031 E0.02588
G1 X103.583 Y112.262 E0.02563
G1 X103.333 Y111.479 E0.02575
G1 X103.112 Y110.688 E0.02575
G1 X102.920 Y109.886 E0.02588
G1 X102.757 Y109.085 E0.02563
G1 X102.624 Y108.274 E0.02575
G1 X102.520 Y107.459 E0.02575
G1 X102.445 Y106.638 E0.02588
G1 X102.400 Y105.821 E0.02563
G1 X102.385 Y105.000 E0.02575
G1 X102.400 Y104.179 E0.02575
G1 X102.445 Y103.362 E0.02563
G1 X102.520 Y102.541 E0.02588
G1 X102.624 Y101.726 E0.02575
G1 X102.757 Y100.915 E0.02575
G1 X102.920 Y100.114 E0.02563
G1 X103.112 Y99.312 E0.02588
G1 X103.333 Y98.521 E0.02575
G1 X103.583 Y97.738 E0.02575
G1 X103.860 Y96.969 E0.02563
G1 X104.167 Y96.203 E0.02588
G1 X104.500 Y95.452 E0.02575
G1 X104.858 Y94.717 E0.02563
G1 X105.247 Y93.989 E0.02588
G1 X105.660 Y93.279 E0.02575
G1 X106.098 Y92.584 E0.02575
G1 X106.559 Y91.909 E0.02563
G1 X107.049 Y91.245 E0.02588
G1 X107.445 Y90.748 E0.01994
;BEFORE_LAYER_CHANGE
G92 E0.0
;0.35


G1 Z0.350 F10800.000
;AFTER_LAYER_CHANGE
;0.35
G1 E-0.80000 F2100.00000
G1 Z0.950 F10800.000
G1 X105.523 Y89.329
G1 Z0.350
G1 E0.80000 F2100.00000
G1 F1669
G1 X105.708 Y89.078 E0.00752
G1 X107.525 Y87.103 E0.06491
G1 X108.929 Y85.832 E0.04579
G1 X111.078 Y84.218 E0.06500
G1 X113.385 Y82.846 E0.06491
G1 X115.094 Y82.031 E0.04579
G1 X117.615 Y81.100 E0.06500
G1 X120.222 Y80.446 E0.06500
G1 X122.092 Y80.155 E0.04577
G1 X124.794 Y79.986 E0.06547
G1 X127.494 Y80.109 E0.06536
G1 X130.146 Y80.520 E0.06492
G1 X131.983 Y80.979 E0.04579
G1 X134.520 Y81.867 E0.06500
G1 X136.976 Y83.037 E0.06580
G1 X139.263 Y84.449 E0.06500
G1 X140.777 Y85.586 E0.04579
G1 X142.769 Y87.391 E0.06500
G1 X144.553 Y89.396 E0.06491
G1 X145.679 Y90.922 E0.04586
G1 X147.069 Y93.219 E0.06494
G1 X148.218 Y95.685 E0.06580
G1 X149.083 Y98.230 E0.06500
G1 X149.526 Y100.070 E0.04579
G1 X149.914 Y102.730 E0.06500
G1 X150.013 Y105.412 E0.06491
G1 X149.910 Y107.303 E0.04579
G1 X149.520 Y109.962 E0.06500
G1 X148.847 Y112.561 E0.06492
G1 X148.205 Y114.345 E0.04586
G1 X147.070 Y116.778 E0.06494
G1 X145.679 Y119.078 E0.06500
G1 X144.028 Y121.240 E0.06580
G1 X142.745 Y122.633 E0.04579
G1 X140.751 Y124.435 E0.06500
G1 X138.578 Y126.010 E0.06491
G1 X136.950 Y126.977 E0.04579
G1 X134.523 Y128.132 E0.06500
G1 X131.990 Y129.019 E0.06492
G1 X130.150 Y129.479 E0.04586
G1 X127.497 Y129.890 E0.06494
G1 X124.797 Y130.014 E0.06536
G1 X122.097 Y129.845 E0.06544
G1 X120.226 Y129.554 E0.04579
G1 X117.619 Y128.901 E0.06500
G1 X115.100 Y127.972 E0.06492
G1 X113.391 Y127.157 E0.04579
G1 X111.081 Y125.784 E0.06500
G1 X108.934 Y124.172 E0.06492
G1 X107.528 Y122.900 E0.04586
G1 X105.710 Y120.924 E0.06494
G1 X104.115 Y118.765 E0.06491
G1 X103.134 Y117.146 E0.04579
G1 X101.957 Y114.730 E0.06500
G1 X101.036 Y112.170 E0.06580
G1 X100.406 Y109.557 E0.06500
G1 X100.132 Y107.683 E0.04579
G1 X99.987 Y105.000 E0.06500
G1 X100.135 Y102.287 E0.06570
G1 X100.569 Y99.635 E0.06500
G1 X101.045 Y97.802 E0.04579
G1 X101.954 Y95.277 E0.06492
G1 X103.131 Y92.860 E0.06500
G1 X104.111 Y91.241 E0.04579
G1 X105.488 Y89.377 E0.05603
; PURGING FINISHED
G1 F8640
G1 X105.708 Y89.078 E-0.08568
G1 X107.525 Y87.103 E-0.61977
G1 X107.700 Y86.945 E-0.05455
G1 E-0.04000 F2100.00000
G1 Z0.950 F10800.000
G1 X107.765 Y91.248
G1 Z0.350
